JesusOmarDev1/NodeQuantAI/ganglios_radiomica.csv
Paciente_ID,shape_Elongation,shape_Flatness,shape_LeastAxisLength,shape_MajorAxisLength,shape_Maximum2DDiameterColumn,shape_Maximum2DDiameterRow,shape_Maximum2DDiameterSlice,shape_Maximum3DDiameter,shape_MeshVolume,shape_MinorAxisLength,shape_Sphericity,shape_SurfaceArea,shape_SurfaceVolumeRatio,shape_VoxelVolume,firstorder_10Percentile,firstorder_90Percentile,firstorder_Energy,firstorder_Entropy,firstorder_InterquartileRange,firstorder_Kurtosis,firstorder_Maximum,firstorder_MeanAbsoluteDeviation,firstorder_Mean,firstorder_Median,firstorder_Minimum,firstorder_Range,firstorder_RobustMeanAbsoluteDeviation,firstorder_RootMeanSquared,firstorder_Skewness,firstorder_TotalEnergy,firstorder_Uniformity,firstorder_Variance,glcm_Autocorrelation,glcm_ClusterProminence,glcm_ClusterShade,glcm_ClusterTendency,glcm_Contrast,glcm_Correlation,glcm_DifferenceAverage,glcm_DifferenceEntropy,glcm_DifferenceVariance,glcm_Id,glcm_Idm,glcm_Idmn,glcm_Idn,glcm_Imc1,glcm_Imc2,glcm_InverseVariance,glcm_JointAverage,glcm_JointEnergy,glcm_JointEntropy,glcm_MCC,glcm_MaximumProbability,glcm_SumAverage,glcm_SumEntropy,glcm_SumSquares
case_0002,0.45289320569860086,0.29849491155234426,33.2324418572125,111.33336137753503,82.46211251235322,121.1156472137271,72.73238618387272,122.34786471369249,34610.875,50.422122935472636,0.42724634873144357,12021.190620240928,0.3473240887507446,34790.0,-18.0,65.0,81593086.0,2.394659791977982,41.0,10.234528108579479,123.0,27.62908046728199,30.103018108651913,40.0,-315.0,438.0,17.79101681323702,48.4283268928971,-1.9903696534310282,81593086.0,0.24255815019877405,1439.1111463954753,223.37514588531945,395.4803694783673,-30.406502998010232,6.8184485070579814,0.7733759164650379,0.791922411301593,0.5091499157971869,1.288508065059808,0.5072327345087781,0.7769172121289428,0.7690179331941904,0.9976660678159822,0.9738477511460274,-0.324770772536127,0.8687066300136312,0.37682959082212053,14.895027659727539,0.12748996453566713,3.7838701437496502,0.817719066714883,0.24524086221205116,29.790055319455085,3.102661470716637,1.897956105880755
case_0005,0.5142951348665364,0.3220225774540465,20.026429412464395,62.189519662863454,56.22277118748239,43.93176527297759,55.326304774492215,63.35613624582863,13093.458333333334,31.98376740229748,0.5135091162721854,5231.65239010873,0.39956230484882566,13185.0,35.0,95.0,67852752.0,2.2528347413194223,31.0,22.675242790922393,234.0,22.190944231825934,61.573454683352296,61.0,-310.0,544.0,12.750571067190297,71.73707523725088,-2.247066431821538,67852752.0,0.28435012437140206,1354.9176419521557,257.9180580548968,509.3840416029404,-13.828091862260836,5.333343262648847,1.1931170725663554,0.6136329571353977,0.5624628890126705,1.3534804555564013,0.8692233853697033,0.7688486747962582,0.7604053981462356,0.997875634861349,0.9774528581789514,-0.25973510254214033,0.802390373067176,0.38295836049586396,16.027566447265954,0.14076520138451537,3.6449766923547124,0.7665752906922318,0.29171005261073,32.05513289453191,2.9347983388514796,1.6316150838038008
case_0006,0.4510055642825544,0.2882246035647687,21.35954304642285,74.1072857148471,64.03124237432849,54.08326913195984,53.600373133029585,70.2780193232564,19925.25,33.4227982112731,0.5116776174011173,6946.353659890729,0.3486206526839427,20001.0,49.0,83.0,91451779.0,1.3922274156666656,17.0,20.793826729364923,127.0,11.036694008007464,65.75606219689016,67.0,-172.0,299.0,7.292480605691975,67.61923048943548,-2.221337159809058,91451779.0,0.4709645898636021,248.50061634211426,103.29123299225118,13.66114789439386,-1.2109750762070126,1.1790563415163633,0.44494547714826144,0.44798723633382526,0.3803616889275254,1.0370434439155514,0.29610204256937483,0.8176031458687005,0.8155312294382753,0.9974221340650454,0.9731103485948223,-0.14119671317510038,0.5328260023590538,0.3468322470605955,10.154195958111494,0.27856949543265785,2.4607601171229136,0.5203399205958238,0.47480139142479894,20.308391916222988,2.0127767284863016,0.4060004546661562
case_0009,0.29955341112778333,0.2447357567845114,19.36361215832563,79.12048657187104,40.8166632639171,54.48853090330111,33.28663395418648,72.86288492778748,17836.541666666668,23.700811642693946,0.547226494130412,6032.871994705521,0.338231037577194,17920.0,58.0,112.0,146777463.0,1.9365366640934396,26.0,8.154934277520187,179.0,17.382395231285873,87.35161830357143,91.0,-170.0,349.0,11.13334839450406,90.50252284121697,-1.2716702813786656,146777463.0,0.32500568000637753,560.4014203721651,123.83891323438057,36.31613176904266,-3.6889843108451497,2.471208440900519,0.7461746272306594,0.5319796313567648,0.5754853750492634,1.2983320777116758,0.40898409352444187,0.7370384414280369,0.728633161849821,0.9967363492863316,0.9646363316090306,-0.13954324860071632,0.6099543393828143,0.45597862857228944,11.108878223874617,0.14690178705786144,3.378502479300514,0.5831370833625928,0.2810595459919384,22.217756447749235,2.596584001960581,0.8043457670327947
case_0012,0.7879317145619961,0.42375570336080776,10.932606972814062,25.799315233063584,28.844410203711913,25.238858928247925,24.041630560342615,29.274562336608895,2655.5,20.328098686113215,0.5567405294928027,1665.6950309863444,0.6272622974906211,2679.0,7.0,68.0,8879029.0,2.274558414846087,27.0,17.644896351406118,201.0,25.14303067238992,36.268383725270624,43.0,-316.0,517.0,11.549243330593788,57.5700200119877,-2.9910899590054485,8879029.0,0.30286534520284897,1998.9115461371894,229.12515431093945,708.6939687217837,-40.91199799111507,6.10640141265298,2.197488620916538,0.428851787103288,0.7362708680988663,1.6063396676062807,1.6386499373137862,0.7427579460662012,0.728227985657425,0.9958040340744899,0.9702124509666515,-0.1772841962558577,0.6835433981940334,0.36797046277948375,15.104490190158828,0.15925625002808108,3.6369008306984116,0.5975634574242012,0.3110522538063506,30.208980380317655,2.8373035877030497,2.0759725083923795
case_0013,0.5727049198568407,0.5067017862854714,66.2140020437847,130.67647250503342,125.29964086141668,212.43822631532208,91.76055797563569,212.49705880317498,29526.416666666668,74.83905871316982,0.31117001900675184,14846.595429519932,0.5028241522541655,29889.0,32.0,94.0,130242097.0,2.1598015213611146,30.0,14.064824610508046,162.0,20.15622917713335,59.71042858576734,58.0,-306.0,468.0,12.937596129386836,66.01156019841298,-1.2183527294349876,130242097.0,0.2788860980638791,792.1907979326779,255.43950125101054,129.99291167545292,-3.281081970196391,3.9782696803705666,0.6284531036388736,0.7249787365589211,0.4609334084934588,1.1860849204727673,0.41047140818989586,0.7887532993382596,0.7836529775105153,0.998460300344425,0.9783822353639363,-0.297605970273467,0.8324629535415636,0.37836745331493815,15.956249542221382,0.1380460770833382,3.519227123408908,0.7594764733932815,0.27396105108545876,31.912499084442764,2.9096765887814033,1.15168069600236
case_0015,0.45585608556862073,0.35829057984052387,45.08968972425774,125.8467072852635,115.25623627379127,82.63776376451628,119.03780911962384,142.95104056983985,44793.708333333336,57.367987364760246,0.36585845961349056,16671.795257900387,0.37219055707191884,45074.0,-17.0,50.0,59808375.0,2.2289195417703684,27.0,18.14850508018438,129.0,21.466536317714148,14.90528908017926,16.0,-369.0,498.0,12.241692259485342,36.42654249555905,-2.1549931588033693,59808375.0,0.29514385762983747,1104.7253556170583,263.2447096598181,356.3429571325582,-16.281448417229143,4.91250493891657,0.7782941422252332,0.7197125682620304,0.49491775663218635,1.276218236352943,0.5274826258979904,0.7840210509017672,0.7763841755038295,0.9982752093330622,0.9780170240825607,-0.28108246153734984,0.8194696868731861,0.3646950343317285,16.192923134968808,0.16907601889208929,3.5709743142090287,0.7691243247541316,0.3605032741898047,32.38584626993763,2.8936044601643807,1.422699770285451
case_0017,0.594568137486207,0.45468190515437223,10.030684790427593,22.060884052603775,15.264337522473747,23.706539182259394,22.360679774997898,24.454038521274967,1909.5,13.116698742455792,0.736244020093197,1010.97896436433,0.5294469569857712,1929.0,63.0,133.0,23091707.0,2.2516043892395903,34.0,4.565052030691369,217.0,23.152032455433844,105.132711249352,114.0,-41.0,258.0,15.030034661415138,109.41123124264776,-0.9368560243798371,23091707.0,0.27115718423957175,917.9305473925175,48.09926095061975,80.20324597159342,-7.419786594137647,4.04079683902604,0.798966695641067,0.6637637750938767,0.5859329847031617,1.347704695461391,0.44704414363608563,0.7386110850289558,0.7280199786020289,0.9935759573772617,0.9524911043277998,-0.22443029424302718,0.7604567327866972,0.43440947043375056,6.876572712795556,0.1345600839128561,3.642204716772571,0.7321765327529549,0.2890053942042735,13.753145425591113,2.8893318776959998,1.209940883666777
case_0018,0.6038517581701832,0.44769743263973416,46.50447062713026,103.8747762142134,105.53672346628922,114.49017425089369,83.86894538504703,115.93532679903913,73749.33333333333,62.72496624648709,0.35468911235685563,23977.744762112397,0.32512490185826404,73959.0,10.0,82.0,252812844.0,2.240795769105868,36.0,7.382860341698071,210.0,22.73783396936216,50.45909219973228,56.0,-341.0,551.0,15.60519552554627,58.46609015253556,-1.0080290958614575,252812844.0,0.26227919069353706,872.1637121033315,277.24125805153705,103.38259866560392,-6.9656214520703195,4.663345095616486,0.5745620675506978,0.7795691298097455,0.4465673790430153,1.169795090397863,0.3699009371404598,0.793197038821783,0.788064325410762,0.9989265071295738,0.9815938955244345,-0.3310748725959728,0.8665260198189968,0.37039170086864365,16.619830098448343,0.13499938727455513,3.6208416155133993,0.7989866910525972,0.2974546714557127,33.23966019689668,3.0167756645777386,1.3094767907917961
case_0021,0.4194244064426599,0.33929561687226045,33.06362772337389,97.44784806878843,70.178344238091,58.59180830116101,78.77182237323191,86.84468895678077,36634.958333333336,40.87200583536609,0.472959270679455,11278.66030033756,0.3078660605456553,36762.0,74.0,143.0,482985251.0,2.2965228626676923,32.0,10.766269582891,220.0,22.92130415073072,109.6392198465807,114.0,-254.0,474.0,13.602676884459404,114.62183821681887,-1.7949079814782862,482985251.0,0.26878631811722214,1117.4072676357434,257.288242905186,217.14876405910692,-15.145324022078698,5.038747790122068,0.9607680117605517,0.6768702230408989,0.6175028071745069,1.400458205783449,0.5698238445417138,0.7322151235213895,0.7211995776654448,0.9976538622762466,0.9712823685569022,-0.21582651230715533,0.7666361061716545,0.4403555742737711,16.008382031583537,0.11576393193095257,3.902611497554799,0.6948325447457763,0.24998649332512873,32.016764063167074,3.040395210787219,1.4998789504706547
case_0023,0.42397089254005293,0.27428828514788645,18.868664809299773,68.7913623402708,61.61168720299745,37.12142238654117,28.442925306655784,67.05221845696084,10936.666666666666,29.165535290450794,0.5587519428883856,4264.37179281628,0.38991512887683144,10994.0,27.0,112.0,71963541.0,2.6076375042518642,43.75,16.617213566536925,210.0,28.933741771066753,69.05794069492451,74.0,-408.0,618.0,18.06151589098893,80.90556518832797,-2.254438078650976,71963541.0,0.20781659759905424,1776.711305419077,419.42078445540807,604.7703386653301,-27.176501282322906,7.434053264185755,1.467061090846258,0.664192367529853,0.725938468777456,1.5499855856885476,0.9271814576953195,0.70792240986252,0.6926215107048528,0.9979078928678929,0.9739866000846503,-0.23592822075219871,0.8170420174188416,0.44691822637993633,20.443272826460074,0.07811701659100306,4.373468096510377,0.7450567802917665,0.16277388986086722,40.88654565292016,3.36581455019767,2.2252785887580027
case_0024,0.5287404758737624,0.3762433062314666,14.911866210351976,39.633572115109274,40.70626487409524,38.62641583165593,28.792360097775937,42.941821107167776,7592.0,20.95587378071996,0.6461552053118149,2891.022090507541,0.3807984839973052,7632.0,34.0,63.0,19507961.0,1.2724002807498618,16.0,35.68175635614242,93.0,10.012971457759232,48.16601153039832,49.0,-155.0,248.0,6.558616088089449,50.55763596636355,-3.680591048943939,19507961.0,0.4638217477222683,236.10988776087336,89.94424910346223,15.599201742649573,-1.5510346440640417,1.1158588609483908,0.3901361124472773,0.4754773763438385,0.3096345065489499,0.9497480699681158,0.2918094003466674,0.8536187681793704,0.8519361462724806,0.9969156442576275,0.9746401456647557,-0.18984717285010197,0.5904289368269758,0.27727182149944507,9.474322093638001,0.28268730670196346,2.1919841643704667,0.5562384111259778,0.3573429314321742,18.948644187276003,1.8503703447919462,0.37649874334891703
case_0026,0.28379089984060674,0.16536666154474844,11.098475016881967,67.11434404738651,42.05948168962618,28.635642126552707,35.12833614050059,58.94913061275798,3286.0833333333335,19.04644008941989,0.475237616097501,2249.187688412658,0.684458505844138,3330.0,33.0,97.0,18012295.0,2.216440386256067,29.0,22.49573243060536,195.0,21.224973261549838,65.5966966966967,68.5,-282.0,477.0,12.448364528988975,73.54656754463527,-2.708275789902748,18012295.0,0.28457773088403715,1106.1709800791782,233.01090960220932,306.4490421044614,-17.131118998875948,4.0908600923277385,1.308983071099343,0.498586892406851,0.6716278591638345,1.503674340918551,0.8472522462870457,0.7274292761701637,0.7134569456370345,0.9968851664818826,0.9692305231773541,-0.15988923852825238,0.6670772487299911,0.42027134863917215,15.241880835551397,0.12648932625787207,3.750471833677297,0.5963579666138292,0.25071864267721106,30.483761671102798,2.837036187954621,1.3499607908567708
case_0029,0.3682097984052272,0.2875462910871699,17.892104570645426,62.22338846033462,28.635642126552707,29.732137494637012,54.378304497290095,54.53439281774392,9225.0,22.91126132106995,0.5954390666409981,3572.3805471717574,0.3872499238126566,9278.0,-5.2999999999999545,49.0,19288817.0,2.0325604999873024,26.0,22.46381774428151,117.0,22.93033221948687,20.7858374649709,30.0,-372.0,489.0,11.19242202185349,45.59588108186766,-3.8020106969629746,19288817.0,0.34842133628025346,1646.9333325116295,272.17898282321244,838.0654450270863,-52.45641915302414,5.926337626174237,1.1369278549735597,0.6523454325206777,0.49239694904675196,1.2887734044773564,0.88882583449798,0.8092263381823469,0.8012810912938437,0.9973115652531905,0.9777609854860034,-0.28267563675995594,0.7935703714554561,0.3025204062350645,16.461463075941754,0.2188364820937608,3.1674204480994543,0.7553451974211716,0.4026793094488034,32.92292615188351,2.6175017817927135,1.765816370286949
case_0030,0.780317228963594,0.3146755130816333,35.54580027226459,112.96017260498844,123.69316876852982,92.11405973031478,114.94781424629178,131.63965967746955,60116.958333333336,88.14476887037387,0.309537206557531,23975.587880691142,0.39881571765079277,60434.0,-5.0,63.0,112828219.0,2.2425460327431623,33.0,11.706455209764407,374.0,22.15564786061411,30.245672965549193,34.0,-339.0,713.0,14.349855638035763,43.208401148094225,-1.057692977791797,112828219.0,0.265205085603518,952.1651966356767,250.29030636186053,166.13988433142407,-8.143728553470964,4.668213448222428,0.6307974931504396,0.7581110641048997,0.4430677846456946,1.1785944975500071,0.4295876136289464,0.7994839326663913,0.7943942487357616,0.999257563511078,0.9854202501258522,-0.3317520693099827,0.8641424428013201,0.35615334952165034,15.788626379724601,0.13592382024345642,3.5763586638735565,0.800834729903397,0.27498760651577675,31.577252759449202,2.990553471334004,1.3247527353432165
case_0032,0.48576447863923045,0.32133115896939257,12.244421947401088,38.105305401047005,34.92849839314596,36.6742416417845,23.08679276123039,38.28837943815329,3888.4583333333335,18.51020381152825,0.5647302151121597,2117.5226587239126,0.5445661177777601,3936.0,34.0,100.0,21854078.0,2.254452292689457,32.0,16.874359090662946,153.0,22.46680113523696,66.51016260162602,71.0,-220.0,373.0,13.86186036017651,74.51414104347681,-2.5025917030504004,21854078.0,0.26448945320245887,1128.7554861524225,151.47483598965917,214.78626007923597,-14.315336765628594,4.479017864489015,1.0839594563604735,0.5983732028551105,0.575143110779935,1.3503929107594326,0.7450674218933864,0.7584016449998694,0.7501096367607265,0.99605987029565,0.9675723073097386,-0.24327117783978144,0.7853805905397475,0.40571816249376175,12.27294338784638,0.12386512079081978,3.6911367852526427,0.6970566789125436,0.21359293735459872,24.545886775692768,2.950779720469288,1.3907443302123725
case_0033,0.9688468608263064,0.8581761711798208,23.732116935566463,27.65413178851091,36.359317925395686,32.64965543462902,32.89376840679705,37.22902093797257,11209.75,26.792618772175768,0.6849993638236869,3536.1002941331776,0.31544863124808115,11249.0,26.0,75.0,33367324.0,1.807996550542962,26.0,3.439315949961602,141.0,15.743908852980017,50.62761134323051,51.0,-37.0,178.0,10.813002595654071,54.46327223043438,-0.1215952011936321,33367324.0,0.3374820346334595,403.0929917252016,21.148624798507534,12.986526490314326,-0.1455343672084173,1.9636469634136875,0.8422224962897503,0.39921007258949753,0.6386420648303652,1.3452473208313287,0.4195116876986793,0.7127203335072914,0.7009880311107074,0.9873747451118012,0.9312550073150345,-0.09161771733669456,0.4690115752159528,0.4780024363966123,4.568176520950112,0.13262483592790708,3.4140453328705735,0.40222151710011766,0.21945376569046188,9.136353041900225,2.512012284530308,0.7014673649258594
case_0034,0.7208368118533923,0.6473925526711248,18.626378455760708,28.771382029201224,28.160255680657446,35.4682957019364,28.0178514522438,36.15245496505044,7463.041666666667,20.739471294545396,0.7601059149871223,2429.7071026109074,0.3255652602695604,7494.0,16.0,73.0,25345445.0,2.1616173878066145,21.0,22.48654926427362,189.0,21.651886013748282,41.81865492393915,47.0,-318.0,507.0,9.467491212207129,58.155810933585485,-3.5238178391264965,25345445.0,0.3179262563150779,1633.2984456954412,234.43222807703881,839.9877068417698,-48.37656434597074,6.085463393263701,1.3815575764591652,0.5959558093191475,0.5675818781273544,1.3869895160633463,1.049270300919748,0.7821171527446642,0.7724438004719011,0.9970608625569966,0.975571983495662,-0.24471344655220703,0.7680918108151784,0.34096884555480883,15.272657240345568,0.1795742505451464,3.424159982577248,0.7132906114840438,0.321556434673794,30.54531448069113,2.749915349207039,1.8667552424307166
case_0035,0.6929868784773883,0.6388563921422332,20.940822095956893,32.778606199332955,40.36087214122113,34.0,29.068883707497267,42.36744032862972,10750.541666666666,22.715143990915315,0.7254887031382357,3246.93579826619,0.30202532104346896,10794.0,12.0,90.0,48195174.0,2.3626529936077545,35.0,13.293735087582938,142.0,25.32681010652128,55.871224754493234,63.0,-290.0,432.0,15.190852643914821,66.82063053289593,-2.250542369471713,48195174.0,0.25238578628269837,1343.4029092466876,224.06587936059003,302.73783431713537,-21.29798148508489,5.520154505090469,1.0501161190700907,0.6716810131707438,0.5669743609124006,1.380868509142953,0.7213805321126633,0.7644253040055874,0.7545337887613179,0.9969124755403054,0.9712766242178752,-0.26300916177573375,0.8165516859904272,0.3812592861407319,14.931389114805487,0.1253450388832092,3.827966855267365,0.7355095276317006,0.26339430299282834,29.862778229610974,3.0484872341716716,1.64256765604014
case_0039,0.3425470828345273,0.13240579257480944,19.85638607746692,149.9661434090811,112.79184367674819,171.96802028284213,31.89043743820395,172.11042966653707,10967.875,51.3704649487251,0.4191694262399038,5695.207096942954,0.5192625824914082,11079.0,0.0,70.0,25001012.0,2.2613238117540453,36.0,8.943555130378893,176.0,22.66877583283113,36.55618738153263,40.0,-208.0,384.0,15.317783801020408,47.50381764317531,-1.2125522868763126,25001012.0,0.25496551809709744,920.2578548023284,123.82994673654275,106.3639415414103,-6.910694423842127,4.318373841407771,0.8093736386897533,0.680827940915072,0.5617865324286623,1.3039662592775252,0.48445765608792,0.7486203845979491,0.7404561890803429,0.9972737831392826,0.9694519382568174,-0.24539145354859146,0.7934556424006967,0.4326118683937874,11.088378960599327,0.11091426931845393,3.7755802928909974,0.747567520703555,0.19716386493665178,22.176757921198654,3.0049227002547974,1.281936870024381
case_0040,0.7411139993932909,0.4338871887684926,16.712728435249012,38.51860314817075,42.95346318982906,38.47076812334269,39.92492955535426,44.63182720884279,11871.416666666666,28.54667603018383,0.6676023457209332,3769.6523737144075,0.31754022957504996,11918.0,0.0,47.0,12702238.0,1.7964994420624538,26.0,13.646407165491102,160.0,16.141077499400794,23.46316496056385,25.0,-271.0,431.0,10.769366724258033,32.64663565001725,-1.6062622617223268,12702238.0,0.3601194558745825,515.282709298346,157.38419764994208,45.02041885985806,-2.958901441383865,2.3456480936827018,0.4508712320428214,0.6738500556320731,0.35105449064374167,1.0359580958244985,0.3238284898945397,0.8363284077399002,0.833283365559139,0.9986308090097732,0.981766442266543,-0.30099225891646914,0.7884341048528374,0.3007556553773272,12.526381914132653,0.21768634699885878,2.8664244937233025,0.7713696238725203,0.34651957091502783,25.052763828265306,2.4436244863093846,0.699129831431381
case_0042,0.6210419379779063,0.3815344542341118,6.551055827094784,17.170286338216304,18.601075237738275,15.132745950421556,16.278820596099706,20.074859899884732,675.0,10.663467903121422,0.6557783262090404,567.4525876416219,0.8406705002098103,693.0,3.0,64.0,1667710.0,2.130785059492298,31.0,13.498070458415581,97.0,21.94307952749511,36.81385281385281,46.0,-179.0,276.0,12.894348736527023,49.05617123775495,-2.5688082640427035,1667710.0,0.2898392292331686,1051.2481775079177,103.87201987489638,166.55109929134608,-15.607664483490037,3.9146263994376396,1.0553133617350032,0.5681320571364872,0.5763050388138906,1.404403328522777,0.7115062820896407,0.76420548369953,0.7529808311911634,0.993185739716382,0.9579779467088578,-0.22246221369442815,0.7376645492082704,0.3699102836897797,10.156571077736414,0.15560686135817706,3.3787725407944174,0.6609151645208107,0.273705024697381,20.31314215547283,2.677590070507934,1.2424849402931608
case_0044,0.5968659858875428,0.5049691371793303,21.80846718088074,43.18772292243253,47.20169488482379,44.41846462902562,32.7566787083184,49.53786430600334,15216.083333333334,25.77728282033572,0.6823681819056695,4351.78344050667,0.2859989226645054,15260.0,33.0,76.0,52261913.0,1.6235296446001954,22.0,4.691023639669182,109.0,13.680531443618605,55.69508519003932,57.0,-73.0,182.0,9.131767418303276,58.52149127476401,-0.8066330560258277,52261913.0,0.4018218592882823,322.8224266965434,33.91823562906133,13.126749543585989,-1.3765852444210802,1.7425138565243055,0.36879622848345994,0.64898947375422,0.3430866982992881,0.9776702414590027,0.2468321746909356,0.8325692758725803,0.83101394579582,0.9943668260899099,0.962160420537785,-0.2587958223077767,0.7290312917004285,0.32212307477222757,5.7943652864586905,0.24404803947544756,2.702861053141805,0.6807586241262041,0.44240650901685075,11.588730572917381,2.295221420534296,0.5278275212519413
case_0048,0.8156973490015487,0.610563011119737,13.87710448544002,22.728374029717617,24.08318915758459,24.698178070456937,23.323807579381203,28.478061731796284,3580.7916666666665,18.539474443156305,0.6218520115609932,1820.1888530759738,0.5083202326513384,3611.0,20.0,72.0,8985893.0,1.8468444574156209,28.0,3.0789781507117953,128.0,16.381256508678636,45.4558294101357,45.0,-30.0,158.0,11.465768511317519,49.88464399999632,0.11401203954618938,8985893.0,0.32605263725005307,422.24527964301205,19.033926565258007,11.031279469474681,0.42605565116425315,1.903311921370217,1.1196585101251726,0.2591454687650017,0.7659269201093597,1.5057233734664572,0.5276306951436103,0.6706240660119884,0.652086765812535,0.9834235804335929,0.9186904330627647,-0.038420543359598616,0.3318250469028149,0.5048448007883407,4.340273100228439,0.11232886430522762,3.615754759479948,0.27263552836702365,0.20971772827708707,8.680546200456877,2.5023104868815382,0.7557426078738475
case_0050,0.36401576129137875,0.24168685249368155,19.420508243845823,80.35401199307495,45.5411901469428,50.08991914547278,37.0,85.81957818586619,15616.166666666666,29.250126848475755,0.5796774740582528,5212.1150133514575,0.33376404879674637,15683.0,38.0,107.0,100954586.0,2.2439324673500423,34.0,12.227034069891047,325.0,21.932978210629766,74.26410763246828,78.0,-334.0,659.0,14.366749887403452,80.23215454362727,-1.3539346807134829,100954586.0,0.2608017753904432,922.0409402656583,310.0431661991694,114.74020853209764,-6.623032983295407,4.2364386651114865,0.9132221413388173,0.6416495830281365,0.588277707215839,1.356659667442237,0.5595348519563905,0.7425286134974243,0.7331751715825138,0.9988520047795793,0.9800625573262831,-0.22443228015202682,0.773760347584454,0.4333861905326674,17.584424311245936,0.10984032522328119,3.813321915169029,0.7196564593889981,0.22751655487922276,35.168848622491865,2.994493318429705,1.2874152016125762
case_0052,0.2198360328032546,0.17703721233533992,36.222576110253456,204.60430681455526,63.0317380372777,55.97320787662612,115.93532679903913,163.75896922000945,64391.0,44.97939910457174,0.4838813049463867,16055.680887975675,0.249346661613823,64506.0,10.0,46.0,86515099.0,1.5594733236575884,18.0,34.88713946669725,256.0,13.563857899329857,27.868802902055624,31.0,-320.0,576.0,7.517495653674879,36.62232382103192,-3.823047476439368,86515099.0,0.45684316109535683,564.5244268588982,216.32335440177127,113.1802033252504,-8.271779427313607,2.061752442108843,0.5694034629561012,0.5409533055804493,0.31362452304055594,0.992108044392251,0.46901651047593523,0.8654950989837129,0.8620078187345358,0.9990435888827631,0.9878022949763464,-0.2684364256518323,0.7158434535017044,0.23518240030985046,14.69523597488626,0.331949169299464,2.420791922762905,0.6795377391312545,0.5344611582176979,29.390471949772525,2.0567472921428833,0.657788976266236
case_0053,0.45856874289875715,0.28868659005544,30.35160572312798,105.13687427358228,86.45229898620394,105.1094667477673,57.706152185014034,113.08403954581743,54805.875,48.212484267941306,0.4885616234267797,14281.796863756606,0.26058879387942635,54945.0,20.0,75.0,149409055.0,1.941524577320145,30.0,8.46480566215194,158.0,17.702617829238996,46.85480025480025,46.0,-251.0,409.0,12.582042215083437,52.14640467230239,-0.3124432222061034,149409055.0,0.3094190665653037,523.8752133302902,179.74558442367808,42.822060747396,0.4946977825121335,2.9390629878636076,0.47393273040820993,0.721526511659867,0.4134354071358765,1.0758689352028754,0.29675210735981145,0.8016916966423685,0.7989064893115005,0.9985500444286887,0.9783922666027857,-0.29587997017912454,0.8106768753353416,0.37336649031766483,13.383918504485406,0.1531356758558904,3.2384423605984534,0.7571407120125587,0.2717634350890727,26.76783700897081,2.724757727152322,0.8532489295679541
case_0054,0.6536645832989296,0.5567675413313704,44.088571457409785,79.18667699626128,87.32124598286491,91.92388155425118,66.37017402418047,93.79765455489812,79168.0,51.76152622158806,0.5402123572735831,16505.146842892304,0.2084825540987811,79290.0,90.0,137.0,1067021246.0,1.778797295976056,24.0,11.475113014862654,203.0,15.119384833625825,114.19313910959768,115.0,-207.0,410.0,10.082799436140972,116.0051645794523,-1.1455538976553516,1067021246.0,0.35767166100084147,417.1251894018871,199.4897138255592,30.51068013786955,-1.9289347788410633,2.232863173105728,0.5103809287290256,0.626579283608186,0.4342366230647348,1.1165276433191553,0.31648373726892154,0.7935649402169117,0.7900220999653863,0.9984398551518883,0.977337243568183,-0.21985284131342447,0.7160046595511952,0.3832969456311235,14.108829053682713,0.17923340453057315,3.091155388459472,0.6380292154827031,0.34355729826074594,28.217658107365427,2.535026780999802,0.6858110254586882
case_0055,0.39701998425306495,0.3330683329225094,12.718596532044618,38.186147630563504,45.89117562233506,45.17742799230607,20.248456731316587,45.93473631142341,4867.375,15.160663730971535,0.6688528434414805,2076.5867800554283,0.42663381803444944,4904.0,-2.0,61.0,9271841.0,2.117666334977222,31.0,8.399609499520656,103.0,21.012212539485695,32.516924959216965,38.0,-192.0,295.0,13.111346366030865,43.48182431403952,-1.671602567542674,9271841.0,0.2890583210695933,833.3186368736511,100.03424098828471,97.0987613406951,-10.03649707883256,3.956405572681239,0.638351360783516,0.7184328227835783,0.4693224460484515,1.21108092495179,0.40566386049943604,0.787875710928073,0.7809859991232221,0.9963277724087936,0.9672290428421384,-0.29929843632200254,0.8175474373008578,0.3659563935899696,9.960098952158315,0.155543169622956,3.380493955043366,0.7512146541380226,0.2945270231517238,19.92019790431663,2.806555312264353,1.1486892333661887
case_0057,0.7512826687386491,0.5183271614434295,11.928226742482906,23.012930113994727,23.259406699226016,28.600699292150182,23.40939982143925,28.61817604250837,3140.4166666666665,17.289215551537986,0.719443897444914,1441.4913492128787,0.4590127687555936,3165.0,5.0,63.0,6678858.0,2.074577115152246,27.0,19.435942274200315,115.0,20.005619720032243,32.476461295418645,35.0,-238.0,353.0,11.465324964288587,45.937171187203774,-2.9572062374860817,6678858.0,0.3165664143512799,1055.5031584096391,142.51570205927308,218.5639335399128,-15.256493467466187,3.7653596746971307,0.9478684045365531,0.5869703059537933,0.47028006802286276,1.2556805439441143,0.7195449047135549,0.8078311131509217,0.800430013586549,0.9961202733611425,0.9720834125234775,-0.2718707933720347,0.7865751310540585,0.31433399956229874,11.908419554348011,0.19121061094355218,3.241597553161611,0.7142156320502989,0.3785419144270469,23.816839108696023,2.6642622362237294,1.178307019808421
case_0058,0.5622734901120772,0.36650598195267114,15.622250849179412,42.62481819791087,30.4138126514911,48.08326112068523,45.880278987817846,51.0,10010.291666666666,23.966805293532122,0.6664841871597483,3370.2239637164835,0.3366759007571192,10045.0,14.0,78.0,30961801.0,2.12029320879148,33.0,7.612488298591229,201.0,20.308830452114314,48.66789447486312,52.0,-227.0,428.0,13.772824511736406,55.51855281184438,-1.021817880429922,30961801.0,0.28069937149427876,713.7457537051413,157.29836773745788,72.666163683972,-5.460862471363986,3.693682963144804,0.6535231259274907,0.6974624755262467,0.5235395104798616,1.2243598501000406,0.3691155370349011,0.7571893942693113,0.7506981717759961,0.998205909455116,0.9741232984103305,-0.24980822203950376,0.7833033135799509,0.4316796767097456,12.511518161880902,0.12663043493924236,3.5848289861717646,0.7789486156688192,0.2588914739765801,25.023036323761804,2.891310314434131,1.0868015222680738
case_0061,0.7783244115618284,0.2633369772491852,37.75158430721608,143.3584629912922,123.4908903522847,124.31009613060397,78.81624198095213,127.82800945019835,21202.916666666668,111.57939135010568,0.3409939291820654,10864.286628923264,0.5123958557080558,21365.0,-49.0,45.0,30649880.0,2.601461319133687,49.0,6.785105785044221,115.0,29.164048713891464,-3.739948513924643,-4.0,-343.0,458.0,20.698912770279165,37.875898205487545,-0.7999027627158031,30649880.0,0.19208936053939507,1420.5964499856477,213.41458214305314,237.44817785739875,-7.326920802118895,7.582062681288013,0.9342485667217907,0.7795629571273571,0.6106701347131828,1.3902479360814048,0.548895188015107,0.7347079671685037,0.7233297828957862,0.9974695003722815,0.9701836857555898,-0.3103891787836211,0.8822848194177523,0.43320817836100517,14.551647630048409,0.0719686365603074,4.307491446180349,0.8170535462704239,0.1360296514694441,29.103295260096818,3.4428489988110007,2.1290778120024516
case_0064,0.6942061978948957,0.5023817513768618,11.66950633018455,23.228364283141858,26.92582403567252,21.2602916254693,23.08679276123039,29.88310559496787,2627.8333333333335,16.125274452317505,0.6842394952434251,1345.8847244819901,0.5121651770718552,2652.0,38.0,80.0,10388719.0,1.6445436450587636,21.0,11.073197335855477,110.0,14.051113135821678,59.19947209653092,61.0,-94.0,204.0,8.617770984365446,62.58845625761923,-1.8855832241571382,10388719.0,0.4163783160322953,412.7373602039725,48.2521245959362,24.380368021434684,-2.875442742334548,1.9144897982852105,0.5004535199257851,0.5821230122620918,0.3941186012372671,1.0864325168778597,0.3409401102591994,0.815789875474142,0.8125859710196401,0.9941230691739297,0.9614477708852225,-0.22415267100078484,0.6960005395243358,0.34023369466709397,6.9208684359508945,0.24786936312238858,2.7733028246709526,0.6143869719975144,0.45590241689992667,13.841736871901787,2.3171882670310637,0.6037358295527491
case_0065,0.45833560441668375,0.3262058271842103,63.57323754385388,194.88688504621257,206.47518010647187,239.5349661322956,120.8056290079233,240.35390573069537,192446.95833333334,89.3235982505406,0.24899387116319352,64739.52392461904,0.3364019077531226,193074.0,8.0,93.0,805188437.0,2.5241718502179826,41.0,5.6243381134000305,397.0,26.835764138326084,53.915643742813636,58.0,-282.0,679.0,17.70338848967011,64.57833858687461,-0.6283777878211358,805188437.0,0.2164635880886796,1263.4651744390194,219.89534469171707,215.38072345549278,-7.623307164365906,6.760295763068429,0.5871348840498706,0.8389339641914156,0.4546822439564035,1.1787681568360122,0.37428520077840416,0.7899840652517984,0.7847849775295597,0.9992557333315619,0.9844674988421445,-0.3860976091475337,0.9155807029429522,0.375912490420276,14.77671930718989,0.10793945187029401,3.9279908147937563,0.8481656358496402,0.2339180842169264,29.553438614379772,3.3161757189221817,1.8368576617795749
case_0068,0.6979040208749201,0.4873593829339359,11.055211799133716,22.683900600375445,21.095023109728988,23.600847442411894,22.561028345356956,26.94438717061496,2431.375,15.831185438129035,0.6909841224725742,1265.46660113878,0.5204736419263915,2454.0,-11.699999999999989,58.0,4929375.0,2.277427229952091,34.0,11.886083432657525,118.0,23.751220999396228,29.490220048899754,38.0,-247.0,365.0,14.411447811447811,44.81863751776325,-1.9883539697755266,4929375.0,0.2734846024221387,1139.037190416126,141.34974696909288,148.54739815947542,-12.622515243026495,4.275007500790395,1.0492643762118017,0.5972331982752211,0.6072325472065484,1.433164366148534,0.6676171307968525,0.7463960350690507,0.7337596862543199,0.9955596169274508,0.9635019089581717,-0.2182707124386799,0.7446482372847597,0.39683178200876007,11.855024175642486,0.14341431548634806,3.627925406078177,0.6881240257735038,0.3084461789878658,23.71004835128497,2.859434814463876,1.3310679692505496
case_0069,0.5495680249426235,0.39303881210260494,13.118469196938346,33.37703247870009,34.785054261852174,36.24913792078372,24.186773244895647,36.52396473549935,4997.833333333333,18.342949817765003,0.6487803722701146,2178.9182416733897,0.43597256978158333,5031.0,15.0,51.0,6372395.0,1.437673591695206,19.0,5.713753599746341,102.0,11.48773047376589,32.284834029020075,31.0,-90.0,192.0,7.961162550206678,35.58968838442306,-0.050208357679545665,6372395.0,0.4379543313270483,224.31541101896525,33.88620062703688,5.172917775459599,0.30277862453251697,1.2208516332471022,0.3781474051453825,0.5241006263346117,0.35204061224457306,0.9714868714537886,0.2491275644847977,0.827580378362108,0.8264621318921901,0.9954304635830048,0.9650172649682389,-0.1949191135407981,0.6193412064522809,0.3353915881568635,5.8030544934350985,0.2545999461628365,2.471624926929046,0.5505014850758129,0.43262868731162885,11.606108986870197,2.0717359861404,0.3997497595981212
case_0074,0.18648416027963835,0.13358390147822757,24.111059136928603,180.4937486487351,55.072679252057455,128.86038956948718,40.311288741492746,129.84991336154215,25027.375,33.65922515248347,0.4871519177705838,8493.693305452103,0.33937611537175205,25142.0,45.0,107.0,170743034.0,2.1504838652123413,30.0,16.59720705089964,453.0,20.36130429150493,77.0862302123936,80.0,-308.0,761.0,12.815282847789732,82.4084197239388,-1.5112630657249206,170743034.0,0.2863007831529955,848.8607530387213,279.42688871216893,172.85942040579715,-9.553123390947373,3.885506709181641,0.7231958052285277,0.6817014087065181,0.5205954701453774,1.2630928113087867,0.44483181849714737,0.7645187383575625,0.7573957316681084,0.9992990457571602,0.98439612372889,-0.239009328761367,0.7731243296486959,0.4101480015675945,16.692388771282552,0.13709988491658182,3.571012593064149,0.7713011165220944,0.28459533858083524,33.38477754256511,2.8671226658970763,1.1521756286025424
case_0076,0.9747488303904692,0.7870146523519392,14.935265867213968,18.97711284355501,22.825424421026653,23.430749027719962,22.80350850198276,25.475478405713993,2782.0416666666665,18.4979185484432,0.6271124596780262,1525.3907729039618,0.5482990392202233,2808.0,21.0,62.0,7199202.0,1.7984867929980835,16.0,32.4687471556891,120.0,15.902616456035261,40.58262108262108,44.0,-263.0,383.0,7.312689780068354,50.63416214442949,-4.217427983506417,7199202.0,0.3962871141468008,916.8692421327748,173.86595928989743,278.09185865167007,-18.045330759925363,3.1691393051640753,1.128591959080449,0.43664173879358914,0.524075944992897,1.2926329176882414,0.8465187526651347,0.7855965134542426,0.7786705983295502,0.9960113131716289,0.9707764662136401,-0.1714495692773975,0.6236383092198259,0.3609039207382438,13.166449293951768,0.23686667426763675,2.9465369151177594,0.6415459023941883,0.42913361711417686,26.332898587903536,2.3503966845013182,1.0744328160611312
case_0078,0.5806155328035557,0.4559316965237586,27.943098729016462,61.28790549564336,68.24954212300622,68.4470598345904,42.5205832509386,70.15696686716153,40935.625,35.584709903766935,0.6834815896080729,8404.107274829847,0.2053005731518658,40998.0,27.0,80.0,138324124.0,1.9732002767709356,27.0,19.793277804868872,158.0,17.67398957025197,52.15347090101956,53.0,-280.0,438.0,11.5128031379573,58.08548616991423,-2.0743622416421093,138324124.0,0.3168548559958143,653.9391765718032,215.35516384516663,113.37813595431287,-5.534767689646506,3.1035769844385004,0.6188230273772173,0.6639119160298621,0.46356535605878485,1.1754573617816908,0.39665882493690635,0.7864452000718912,0.7816669285830097,0.9983165988611616,0.9771622920220733,-0.24964361248045247,0.7661817439496177,0.38561366841204764,14.6537993005404,0.15505111189248488,3.3151765480924444,0.7017710990192213,0.26682484686742325,29.3075986010808,2.7132895699683552,0.9306000029539294
case_0088,0.9106981232247942,0.6630586103513475,14.4672126179779,21.818904682214868,25.612496949731394,23.853720883753127,27.202941017470888,27.874719729532707,3707.75,19.870435544913757,0.689268611180947,1680.747931335449,0.4533067038865752,3739.0,49.0,96.0,21078443.0,1.8284942537969298,24.0,12.568688558022558,186.0,15.362320826836907,71.86707675849158,73.0,-117.0,303.0,9.938081938570202,75.08298520319546,-1.233336618617131,21078443.0,0.34734356018806994,472.57794521234825,71.96301743589004,28.067955292750987,-1.0800397331086486,2.117474686476403,0.7746523850370396,0.4597165313930708,0.5487423902354409,1.2781483075276159,0.4651182993085028,0.7524629729125496,0.7452426933224732,0.9955948133323917,0.9617717781676054,-0.14113974054718884,0.5942535470636956,0.4326763350478984,8.463270072799265,0.15793161451013285,3.2400234985968095,0.5319433801614583,0.2511693549003625,16.92654014559853,2.5112989100921084,0.7230317678783607
case_0089,0.5305875301808256,0.27514212298065516,46.000051812206095,167.1865118793181,83.2946576918352,109.27488274987991,109.77249200050075,128.32380917039518,17942.458333333332,88.70707841759463,0.31747311455754335,10439.951219261935,0.5818573478232183,18167.0,-39.0,92.0,58076687.0,3.0123794342645867,66.0,2.7657591518992297,170.0,39.20627264542559,28.635603016458415,32.0,-198.0,368.0,27.98576072341866,56.54045627605655,-0.20494948425538503,58076687.0,0.1417949543668644,2376.8254357884593,100.15215690123071,429.3858506997968,-4.771293840877054,12.369208291488418,1.3415095786950497,0.802652884894764,0.7752334207051259,1.6103747999499367,0.7233161515152537,0.6861392640259389,0.6653002020172601,0.994223139377924,0.9535027079018862,-0.294366915859777,0.8972536632072077,0.44880805357953435,9.86880723234972,0.0476080872833126,4.981815077493088,0.8304808079751038,0.11688118513219752,19.73761446469944,3.835155361963309,3.427679467545867
case_0092,0.548963438703098,0.4722875326771943,17.284491438638995,36.59739087470861,41.72529209005013,30.265491900843113,31.04834939252005,42.906875905849866,7412.375,20.090629542141418,0.606495493981316,3031.2945195611182,0.4089505077065203,7445.0,26.0,104.0,49965247.0,2.2318399900977868,34.0,9.92337647215435,134.0,25.886633701994615,73.55607790463398,85.0,-206.0,340.0,15.760504586853031,81.92221162514721,-2.1501558689698594,49965247.0,0.2861440760337393,1300.7521608428228,161.03662706120429,271.74031532377927,-25.466975415979093,5.66058052470757,0.8871380565734182,0.7246847853209507,0.54090361605316,1.3394295016963143,0.5848826912981571,0.7686494122166069,0.7593583587289588,0.9962168741219917,0.9673402429419714,-0.2660347814470483,0.8026314523669293,0.38038140672662374,12.642829624343674,0.1561667089606442,3.5773401563105507,0.7609867644407566,0.3359757071675488,25.285659248687352,2.873312227336929,1.6369296453202475
case_0093,0.3261820981974657,0.22263305779582124,21.917297047225002,98.44583398448201,87.23531395025755,42.05948168962618,33.83784863137726,93.87757985802574,17205.083333333332,32.11126868785772,0.6077644668309689,5302.9802072874645,0.3082217100927031,17268.0,69.70000000000005,178.0,317566609.0,2.8352702461689687,57.0,10.501445666706314,435.0,35.19361472807459,126.98558026407227,133.0,-294.0,729.0,23.646435668275515,135.61146131035756,-1.5982192802607116,317566609.0,0.16922790553521105,2265.1308437274583,315.87346274963147,726.8519496608084,-33.82696044127802,10.500904277528537,1.7297079499618184,0.7127569182266167,0.84301439665548,1.6532720824129226,1.00375402674841,0.6674530498491773,0.6465256212141591,0.9981279090432964,0.9736186101332496,-0.23482270895867116,0.8402451845687846,0.48061689134298863,17.71100786614613,0.051464277512513104,4.854717567246255,0.7748697646751361,0.10055984203338798,35.42201573229226,3.6473372449361787,3.057653056872589
case_0098,0.6687536902539923,0.15161519119747546,14.076440568131364,92.84320691715587,85.16454661418682,62.26556030423239,26.40075756488817,85.65628990331066,4284.875,62.08923724086298,0.5316268708055304,2399.7682612686294,0.5600556051853623,4341.0,-25.0,68.0,10930091.0,2.586458214300362,47.0,8.105027354593338,238.0,30.938634167045162,28.654457498272286,39.0,-313.0,551.0,20.308633624059485,50.178421579078226,-1.4658979080496333,10930091.0,0.21234851040482786,1696.7960576474104,224.568412033961,338.2035102956654,-24.98779160175642,7.208150604996157,1.1688798131919147,0.7139086864795169,0.6815207721605366,1.5135316733964583,0.6908107909838452,0.7179704717076619,0.702344524071793,0.9978330961717744,0.9723640778602181,-0.24682056479724304,0.8156764874338853,0.4286456918027628,14.93495974135463,0.09812936538581875,4.17768409043896,0.7624946520506155,0.21781728766120817,29.86991948270926,3.2508686446397945,2.0942576045470176
case_0101,0.7871023457464387,0.3692657922916602,13.471367825989129,36.48149410858217,35.6931365951495,37.94733192202055,33.60059523282288,48.53864439804639,8941.375,28.714669589199907,0.6147247868507439,3389.01069298953,0.37902567479716825,8988.0,1.0,50.0,12569194.0,1.686276361917544,20.0,23.178992811228294,115.0,15.583281788564843,28.905874499332445,34.0,-266.0,381.0,9.11663123813703,37.39574441088857,-3.050893727505804,12569194.0,0.4268964711688967,562.8921194733462,163.2958818065047,74.52877547553189,-7.162084227379637,2.2856327189960473,0.5890325747061401,0.5833047348190715,0.3751487842509956,1.0882045767891144,0.4445794441263903,0.8326138879545822,0.8284767811506195,0.9978198108718292,0.9785280601389128,-0.2424693879387411,0.712027015270058,0.29725629208232135,12.76210242547384,0.29181106884191804,2.7246433303911597,0.6868219919706597,0.5138364648722106,25.52420485094768,2.257643892077515,0.7186663234255467
case_0102,0.5972663181400291,0.5615198154878432,18.814546775508365,33.50646986369031,38.3275357934736,37.8549864614954,28.160255680657446,39.67366884975475,7163.583333333333,20.012285889356153,0.5749253603506743,3125.7881228121364,0.43634421173930227,7203.0,-47.799999999999955,77.0,22632505.0,3.071004026304771,68.0,17.592859956518232,849.0,40.28856430218108,18.310009718172985,19.0,-167.0,1016.0,27.76037289689744,56.054386681846225,1.1063350289884244,22632505.0,0.14220340534449216,2806.837810398351,72.53934756352257,1170.933230743389,13.921203291316342,13.649777305061649,1.8953265550650684,0.7539747576157741,0.916515984120034,1.7047033383230803,1.0301424025253416,0.6413644814694656,0.6146907756927095,0.9989192217478716,0.9786617559027847,-0.254146393755818,0.8711064493847707,0.4874237986030789,8.342657950640318,0.03953888170050582,5.216580505985191,0.8018965553705625,0.08122639436580041,16.685315901280635,3.9002794663788953,3.8862759650316794
case_0109,0.7944987337806146,0.5609357526900165,14.007400833782208,24.9714887428881,29.5296461204668,28.844410203711913,23.769728648009426,30.347981810987037,3921.5,19.839816186841468,0.682038916334732,1763.2333099907898,0.44963236261399714,3951.0,11.0,91.0,17113176.0,2.5767594926540287,43.0,16.233213318627495,226.0,28.84985107044976,48.51632498101746,50.0,-303.0,529.0,17.615404294194633,65.81301600117445,-2.2500515102178595,17113176.0,0.21536993188067366,1977.5192855071432,240.8868154829841,836.1191612005216,-33.21499698953305,8.015829884742182,1.718880123705264,0.6292753292767798,0.7013757448301321,1.5350448566802064,1.2120716324325775,0.7315372262986912,0.7181016493710679,0.9969378818970489,0.9722269569148386,-0.262316277919487,0.8369275007895242,0.40936429328978874,15.469721170165608,0.08863074574535817,4.246147203142171,0.7506480336885125,0.16947953591703455,30.93944234033121,3.3123484304567317,2.4336775021118613
case_0110,0.50622277308016,0.31970525285133755,13.813005634530032,43.20543848227936,46.09772228646444,46.32493928760188,26.076809620810597,46.62617290749907,7454.333333333333,21.871576880643712,0.6093094023358898,3028.6711271778336,0.4062967124953495,7497.0,-3.0,58.0,13365289.0,2.0102812352212927,30.0,10.202182657959403,86.0,19.943579405885338,32.420568227290914,40.0,-221.0,307.0,12.798563437544951,42.22264361674821,-1.9074117658523466,13365289.0,0.3039560940200187,731.6583898065028,121.0267594184056,64.08881475754508,-7.307626320015722,3.1378910976660115,0.7687824430486926,0.6009692577149947,0.5218967148762965,1.2859420469248724,0.48787529948110503,0.7685206841701587,0.7605442823621839,0.9956495654559053,0.9637780048237309,-0.2088769368093699,0.713377579438549,0.3941196309136601,10.974215205890324,0.15502728218215456,3.3157233730775086,0.6514915806134839,0.2888763287641767,21.94843041178065,2.6459745027476838,0.976668385178676
case_0111,0.8707973615011289,0.6476001731547344,8.609162595685373,13.293947334427815,16.401219466856727,12.529964086141668,14.560219778561036,17.029386365926403,825.7916666666666,11.576334262754706,0.756935029128962,562.3489017552604,0.6809815652720244,840.0,13.900000000000006,100.0,3801794.0,2.5101699320938295,47.0,9.528334767885486,131.0,27.858435374149664,56.15714285714286,60.0,-219.0,350.0,19.149791689205152,67.27514576792262,-1.4662219023372447,3801794.0,0.20487528344671205,1372.3205442176873,145.38580860114854,219.9540104353144,-12.723629310416129,6.155231182029035,1.274897612335111,0.6527037278758743,0.7430512787942407,1.5205323344728223,0.7077925813387366,0.6908307131723989,0.6745075668512356,0.9945747381746028,0.9553311572313608,-0.22436031599239115,0.7958677770878559,0.4765709726927022,12.006723732853658,0.07224617348661096,4.248813413815892,0.7013147362944573,0.13214218782718698,24.013447465707316,3.2471683999265646,1.8575321985910365
case_0112,0.7511782485093863,0.438539616326494,52.35520063022622,119.38533870392138,118.43141475132347,111.30588483993108,100.44899203078147,141.9189909772473,96078.25,89.6796696253115,0.32989468081773216,30750.973389167855,0.3200617557997555,96385.0,-2.0,47.0,120279063.0,1.7663152874652202,24.0,24.663400852478944,106.0,16.67016021488906,24.970389583441406,30.0,-329.0,435.0,10.223765602207147,35.32566061767885,-3.158652567235423,120279063.0,0.38826779240364523,624.3819421265878,243.96839436820758,150.99003888687702,-11.844859323864013,2.8642345276264964,0.43103197746516303,0.7345566025015268,0.31701447503879737,0.9834862276217785,0.3275141934792968,0.8537783761150902,0.8511809525916287,0.9988294834641276,0.9843962737883778,-0.33807235457351525,0.8123483322175301,0.26883398461814817,15.599988707365714,0.26879871808456657,2.751656860828525,0.7635604442872854,0.4724600693125974,31.19997741473143,2.370376484637773,0.823816626272915
case_0113,0.5440617370320195,0.380956238053632,8.76663752608794,23.012190510065228,15.264337522473747,24.758836806279895,19.209372712298546,25.475478405713993,1392.2916666666667,12.520052341817843,0.6483257590753136,930.060063830816,0.6680066297153848,1413.0,6.0,110.0,6687134.0,2.82847364376501,45.0,6.7494195977734766,222.0,34.494118660562194,47.10686482661005,40.0,-213.0,435.0,19.99695382547075,68.7937417947324,-0.29740356577875593,6687134.0,0.1994266163603662,2513.5221963278,131.11128030921142,570.6355575964292,7.930614339678764,9.458666996487981,2.2216224289237108,0.6003886133417481,0.9356054731463578,1.8295730812700037,1.3001086013289131,0.6659634758397122,0.6381188509852582,0.9934995406688566,0.9537786593712563,-0.206434960608088,0.7745881276310504,0.4147994064603107,11.371061187364413,0.08573348429291855,4.594841385460973,0.6954867772561066,0.22842564981239508,22.742122374728822,3.4225993445970064,2.9200723563529225
case_0115,0.23603637651573564,0.1801100381420702,21.917942709631692,121.69195529425681,54.78138369920935,72.01388754955533,36.71511950137164,118.52425912023243,15626.458333333334,28.723728178771267,0.5397834128665949,5599.788553210958,0.35835302112352974,15699.0,35.0,75.0,56293006.0,1.674566835633422,18.0,25.65670597257517,195.0,14.4741422596974,54.79571947257787,57.0,-222.0,417.0,8.138826799609214,59.88130072438607,-3.0287064431315813,56293006.0,0.43485563321849746,583.1993039269099,139.00696961665432,89.32683088981032,-6.843492310341418,2.1221334153410063,0.6974870905517524,0.4866497691793337,0.42187040005875975,1.1599012087264202,0.5156808791448104,0.8151470653133427,0.8102122757989159,0.9977012910955688,0.9772598178153088,-0.17872058107550837,0.6247075280622744,0.3239935336683415,11.774997027879301,0.27922572670647783,2.749576649350622,0.5954278547256154,0.4913501555488234,23.549994055758603,2.2220074542523016,0.7049051264731895
case_0116,0.6140977994882971,0.5297786851651194,20.73088473360094,39.131217080089996,39.6232255123179,44.94441010848846,31.906112267087632,46.52956049652737,12807.875,24.030394300182135,0.6834911365438594,3873.1943622425624,0.3024072582097001,12854.0,38.0,138.0,130229500.0,2.642287142803188,54.0,3.976555128502093,176.0,31.96790937291959,92.27306674964991,98.5,-146.0,322.0,22.808713867665322,100.6550430170659,-0.8997590043493888,130229500.0,0.18756843533590215,1617.1188373820391,109.97981636905739,230.68079665057414,-17.815478992087677,7.889315131767455,1.1205455801951139,0.7493352961162114,0.7129686496276798,1.5123866036185194,0.5992432998208836,0.6989678241041024,0.6822758307877143,0.9944440650000506,0.9540770999990329,-0.251996865534545,0.8369087042329482,0.46032993405898487,10.406048536311177,0.07017715038179745,4.413426026962283,0.7731081009654402,0.14017997414573202,20.812097072622354,3.414278125980525,2.252465177990642
case_0117,0.3434997045856524,0.3414291979744786,27.177868119261966,79.6003044862422,74.27651041883968,46.09772228646444,50.15974481593781,76.4525996941896,21948.625,27.342681075952175,0.5060603162128092,7491.234422520883,0.34130768658724103,22029.0,33.0,69.0,66733347.0,1.5586941965334602,17.0,41.187427667563654,135.0,12.504072548559968,51.22670116664397,53.0,-274.0,409.0,7.202153253160473,55.039447060000256,-3.9002856159673422,66733347.0,0.4291214239090383,405.16582025392796,185.7429945491463,71.33538793514857,-5.739803921001442,1.7781038167884178,0.5346067440725565,0.5288615077829151,0.3926789567652501,1.0759203979955734,0.3764366166966976,0.817123303605457,0.8142748859705028,0.9982176141185459,0.9785401321545947,-0.18383921618805063,0.6246192494924376,0.340107448566912,13.617342623272483,0.25590074420581793,2.637425778713068,0.630370532253172,0.43785233512130695,27.234685246544966,2.1664081595620286,0.5781776402152435
case_0119,0.8033086218052097,0.625245062399753,18.67814973340709,29.87332624702142,34.655446902326915,33.1058907144937,28.160255680657446,36.40054944640259,9208.625,23.997500536232177,0.7471413302702157,2843.6614353566624,0.3088041304056428,9245.0,-21.0,70.0,20141026.0,2.642162355339416,45.0,7.982682108730906,193.0,29.15788144440112,25.274418604651164,26.0,-332.0,525.0,19.30807103404761,46.675323568010484,-0.5412974417939724,20141026.0,0.19903596611794605,1539.789594375338,243.60992871291333,319.9320386941264,1.1023122485943833,8.145166608209864,0.9365173349143476,0.7919243330997124,0.5850930304851916,1.3579194643001409,0.5869912553912318,0.7449147584662232,0.7354470359079267,0.998120148485331,0.975134523885578,-0.3355732012002142,0.9026865699005273,0.4277331771296134,15.550167813304087,0.08002197507055094,4.309522712528375,0.829593489265328,0.16265551943188136,31.100335626608175,3.4990815826389254,2.270420985781053
case_0124,0.70919309242686,0.4777325710276144,65.05102076983916,136.16618316375795,135.36986370680884,140.57738082636197,118.84864324004712,155.7979460711854,70541.625,96.56811652186774,0.2652861636841306,31121.92833415777,0.44118530490554714,70953.0,-14.0,49.0,87309164.0,2.067501259591841,31.0,10.560344102700075,279.0,20.36133673620007,21.891787521316928,27.0,-318.0,597.0,13.474854134464385,35.07878426514459,-1.5421635400387959,87309164.0,0.30576300453516975,751.2707446420682,211.43511232756552,93.57127055548418,-7.772837942578842,3.6145485555492955,0.5272836246452594,0.7424698658239942,0.40549034639996795,1.115911191996814,0.3586487731540604,0.8119130142065576,0.8079117100148004,0.9991643839297031,0.9845674467914812,-0.3187604737430953,0.8344723631513676,0.3416783010992691,14.514216804071186,0.1843522332008765,3.2625749665770742,0.7713666976918135,0.37114819865844156,29.02843360814237,2.7461404240177267,1.0354580450486386
case_0125,0.5747892926663986,0.27156871327769905,29.4235097482299,108.34646374798777,63.631753079732135,73.24616030891995,76.05918747922567,136.4734406395618,42054.375,62.27638726061148,0.4982559549389642,11737.413784864097,0.2791008969902441,42161.0,20.0,67.0,94875264.0,1.7304755165190198,26.0,7.460135887014879,115.0,15.12014432139259,43.249495979696874,44.0,-173.0,288.0,10.857073171547503,47.43741849946026,-0.7703985294705843,94875264.0,0.3548757047819643,379.7897713951179,86.51809653687111,16.602195630300187,-0.8026499830038569,2.090587094701258,0.4257733291945019,0.6607459659693338,0.36681992955003584,1.02649864514434,0.28797015526478736,0.8239396992269252,0.8219113530372859,0.9971084642635512,0.9720785456146065,-0.27321565545163257,0.7682160358462607,0.3346445993722504,9.279109031130956,0.19016690283022247,2.9196254457578874,0.6814732222519839,0.32614017785072846,18.558218062261915,2.4718264136890977,0.62909010597394
case_0126,0.7506314002513651,0.7213396815982318,18.27451532468101,25.334132851517598,28.0178514522438,29.832867780352597,24.166091947189145,30.479501308256342,5540.291666666667,19.016595616488765,0.7058496876031468,2145.163094453458,0.3871931702368482,5571.0,23.0,80.0,20262722.0,2.1670053875992163,30.0,28.44184516624694,170.0,21.961200399239065,46.958176269969485,48.0,-323.0,493.0,12.745270608776742,60.3090258873605,-3.5739724800616965,20262722.0,0.2989832691611665,1432.108284880794,239.42091247987875,930.5049112676742,-42.303234251758035,5.936888273669946,1.0208779625946598,0.6936887228366941,0.5399729297220381,1.318326810564686,0.7221633266821309,0.7736976497717224,0.7661163067861383,0.9975602701101507,0.9751957931008088,-0.27418767237707337,0.811557922893324,0.3809733915745897,15.433455361210507,0.15392732311007867,3.524996831993425,0.7827032074286021,0.30470955286112095,30.866910722421014,2.8738392490222178,1.7394415590661512
case_0129,0.6109421206923062,0.34504997539764587,21.487438756024744,62.27341048571871,52.773099207835045,53.075418038862395,54.45181356024793,69.88562083862459,19921.291666666668,38.0454494648875,0.5477988524910533,6487.459639457014,0.32565456838886436,19989.0,36.0,105.0,114130244.0,2.251283537562434,35.0,10.465701193230807,210.0,21.96923617910307,69.52984141277703,69.0,-257.0,467.0,14.73466631227918,75.56224261415144,-0.6339626097473362,114130244.0,0.2565994242453441,875.2536619939605,205.57201408407855,121.99361819688458,-0.7525802534418984,4.394174757356773,0.9543653999497164,0.6410951322975016,0.6336183643573855,1.3824012069497427,0.5431090708183867,0.7213376828603363,0.710129175247723,0.9976769321605126,0.970462495229667,-0.20681201968311802,0.7584946608177122,0.4622021088920553,14.307762031381882,0.09707138312901338,3.956114633358573,0.6964035247550496,0.20017532687931786,28.61552406276376,3.0593548272906688,1.3371350393266224
case_0130,0.3282114243641903,0.25678683208536945,30.31567361870294,118.05774218447624,86.45229898620394,86.83317338436964,49.64876634922564,123.59207094308275,37101.0,38.7478997195873,0.41422565137630335,12986.861588864544,0.3500407425369813,37280.0,31.0,72.0,132233119.0,1.764018726044095,19.0,34.15576061930546,310.0,16.1928470632863,51.28162553648069,55.0,-381.0,691.0,8.173783003284253,59.55691164129422,-3.70222486589735,132233119.0,0.41047315927259653,917.2206065850991,348.4641957322147,475.5336592936698,-24.42611589643642,3.8173321487244474,0.6289749626130648,0.7060435623444459,0.3809093961705961,1.1060313330378961,0.4796002015500264,0.8346806373202171,0.829991026721214,0.9992626611951525,0.9875502872887242,-0.28287931829785473,0.7616032025221846,0.2867895093907573,18.645824487541848,0.2739800542747462,2.7836990551837437,0.7780548039389829,0.47434596392342543,37.2916489750837,2.338339634789068,1.1115767778343777
case_0131,0.31433031287247787,0.24304997838294704,28.659647397801866,117.9166835910844,94.26027795418386,46.57252408878007,74.73285756613352,101.65628362280415,30294.416666666668,37.06478804607053,0.6155921914464001,7634.244854923741,0.2520017116990339,30360.0,16.0,75.0,89621000.0,2.091257411519526,29.0,19.031039772833807,169.0,19.852299546417953,45.36383399209486,49.0,-284.0,453.0,12.077512347895263,54.331789465363315,-2.6187799938720655,89621000.0,0.3008127806679963,894.0659120462227,209.244614828715,178.42600992884056,-12.240787623793572,3.7949808147734414,0.7094255518040147,0.6774093562335415,0.47061600588747965,1.220897419300101,0.48304231507101003,0.7898990852015595,0.784002622534156,0.9980932393439258,0.976978162337718,-0.26713648133421386,0.7947727267659151,0.3679918602825314,14.438578550145488,0.1561745120174089,3.3958120742773086,0.7243600494705057,0.26395520609657397,28.877157100290972,2.7900744498730456,1.1261015916443642
case_0132,0.5513799864677047,0.2950963220508409,48.93307353607583,165.8206825351261,202.98029461009264,204.3624231604235,117.03845521878696,212.96948138172286,45448.708333333336,91.43020569228338,0.2381568988159575,25860.404954271362,0.569001978331354,45940.0,-25.0,52.0,71285431.0,2.445197325534813,39.0,16.773373636695638,181.0,25.724544192620122,14.04564649542882,18.0,-390.0,571.0,16.58143490584605,39.39171548162267,-2.1135203036758,71285431.0,0.23072980429698672,1354.427063110559,297.23831200392425,602.5589347072494,-28.665213103451613,6.501110829700442,0.9249111010921923,0.7446679093446398,0.5609161889990696,1.332818227464597,0.6017864441358406,0.7571455476494889,0.7487926159787998,0.9984299313011858,0.9780733122483736,-0.2966671345747509,0.855876346879312,0.41092884551005493,17.200096729973087,0.10402210708729279,3.973578800518641,0.7820577150685153,0.19339751094144336,34.40019345994618,3.2152954869252337,1.8565054826981586
case_0136,0.7305177418411404,0.24650122056159202,26.906205738244164,109.15242397966645,87.32124598286491,64.28841264178172,100.42410069301094,100.48880534666536,17293.916666666668,79.73778228211268,0.44565269837050925,7256.878056276066,0.41962027435135085,17397.0,6.0,75.0,55446502.0,2.1835451015829808,29.0,15.044718491173345,124.0,22.67926360485855,45.015922285451516,52.0,-308.0,432.0,12.835319447401803,56.454672790645354,-2.573020851156623,55446502.0,0.29423315594326227,1160.696820689023,240.02080634264692,254.7875386080463,-20.528149096528768,4.727802064294795,0.9979781370757858,0.6445811929637426,0.5458080236085812,1.3482838150180998,0.6931301308211157,0.7713609759950883,0.7625428283043695,0.9970666251049174,0.972316089357019,-0.23990416698019512,0.7746055557381166,0.37648094499158596,15.462455131661129,0.15638707883842015,3.5586533985722304,0.6939069386315477,0.32260882121731227,30.924910263322257,2.85089163845028,1.4314450503426455
case_0140,0.5725596554640467,0.22380694653223426,25.46185652068084,113.76705198474991,97.41663102366043,79.17701686727027,94.86832980505137,108.70142593360954,28236.333333333332,65.13842408754871,0.3251825018022369,13789.943599533552,0.488375860871934,28505.0,9.0,119.0,202659201.0,2.912035646244437,51.0,7.677613718688221,331.0,35.39771553847787,68.21312050517453,74.0,-305.0,636.0,21.821860387804133,84.31845503401331,-1.143176565959155,202659201.0,0.17415552394187564,2456.5720502694644,271.90789467051945,885.4852823161965,-31.610978980798247,11.790259821492306,1.4106561280948517,0.7828403074911943,0.7301951366277721,1.5754763408788348,0.8630918713965815,0.7085234666326705,0.6922920175186428,0.9981007004569259,0.9747008818557781,-0.30052629729140534,0.8931657463940066,0.4369305169483945,16.410706483933712,0.0676372814213963,4.753021159839005,0.8137542199811953,0.15968230335733044,32.821412967867424,3.712558299006855,3.3002289873967894
case_0142,0.40657410826894175,0.3295147036009219,47.91209981615312,145.40200874975181,184.13310403075272,205.47749268472205,119.94165248152953,215.13019313894551,132705.375,59.11669204794321,0.35236282986553175,35706.97375482498,0.2690695365943164,133096.0,6.0,62.0,242320103.0,2.006339099805026,28.0,8.82821842527161,407.0,18.11974898797198,34.75302788964357,36.0,-287.0,694.0,11.799872256590215,42.668976017659766,-0.7005132179501042,242320103.0,0.3115907392877661,612.8685668972809,195.01382537826794,67.7235524528642,-2.5724049772260864,3.2208993833314024,0.3726341777333716,0.7908908401776332,0.3161923316653763,0.9665812209112291,0.2697341355395537,0.8488394628613124,0.8468887843193057,0.9995592299853491,0.9895178598229042,-0.3909329891072728,0.8755178536022812,0.2855944251176433,13.93921498315132,0.1921134290671229,3.076896967852949,0.8123752586011492,0.36136012198817064,27.878429966302647,2.6869074361129606,0.8983833902661935
case_0149,0.1739813141860641,0.1526653154358002,23.231213096841028,152.170864944175,92.45539465060976,34.48187929913333,36.359317925395686,107.95369377654477,18535.791666666668,26.47488706381764,0.5007006316684725,6764.672018286068,0.36495188012126456,18657.0,9.0,58.0,35185459.0,1.90156175270397,22.0,28.877647306063494,196.0,17.309785930220468,31.943667256257704,34.0,-286.0,482.0,9.657576961600622,43.42708758987373,-3.657674409458292,35185459.0,0.3628700496644128,865.5140587600539,193.02776989534746,254.883682294321,-16.008891382219097,3.4305123597827105,0.8088414734777795,0.5971833158073742,0.3907537113104667,1.1045733966550373,0.6522432517547917,0.8357654897005318,0.8317144156408846,0.9981167675971652,0.9821416604823312,-0.30655300202907404,0.8045895947590176,0.28765378523086943,13.86981867507712,0.23236915812473832,2.9944423562506657,0.7417266558924563,0.4365209050931286,27.739637350154233,2.534393725621789,1.0598384583151224
case_0150,0.42589092801802925,0.34105669356077917,9.044099984412545,26.517878567308667,27.16615541441225,15.231546211727817,27.892651361962706,28.879058156387302,1190.2916666666667,11.293723912100496,0.5696140850549126,953.5401848500559,0.801097925452492,1214.0,23.0,74.0,4017928.0,1.8717174303666617,22.0,37.739309486715406,111.0,17.915991086961835,48.41021416803954,53.5,-272.0,383.0,9.77467116134576,57.52964997311955,-4.547556230945725,4017928.0,0.36241515107925376,966.111790234198,184.95187207327916,347.31960661294454,-22.775975173208447,3.5149520969354855,1.1283675514082805,0.5073792559625269,0.5329351258878994,1.2738699988283146,0.8378042038880701,0.7774142405399019,0.771140458649942,0.9960916622894392,0.9701806937861056,-0.19676828115704198,0.6862087491313746,0.3837582950962087,13.577703104770448,0.20004655082301598,3.0994829544842992,0.6430945813620654,0.3863704105404474,27.155406209540892,2.4985518131421927,1.160829912085941
case_0152,0.8548031331689954,0.746513824305473,17.47027149174449,23.402475510749102,28.653097563788805,27.018512172212592,25.709920264364882,29.49576240750525,5291.541666666667,20.004509390499017,0.7459690051607352,1968.5728369875799,0.3720225524044026,5319.0,25.0,88.0,23164344.0,2.082654307112188,29.0,6.744377548285589,138.0,19.85552253180705,60.27787178040985,65.0,-160.0,298.0,12.75535929403123,65.99256482757092,-1.2914634920613774,23164344.0,0.2938742837534928,721.5967861456202,101.30642796914228,56.57359518953914,-6.003969678074513,3.417299877904709,0.7630536303334535,0.6320206031711112,0.5381753418401556,1.2921250391917782,0.4644028970072379,0.7591417289434974,0.7508996118680545,0.9956521426505921,0.962535847058709,-0.21877344712074207,0.743626970192775,0.41151895222970836,10.032067108096307,0.13838840557079846,3.537006670774858,0.675932785509054,0.2704881620536206,20.064134216192613,2.7919314348127147,1.0450883770595407
case_0155,0.51877562707451,0.2931076458290656,12.227565664730564,41.716979542258095,32.449961479175904,44.68780594300866,25.079872407968907,45.39823785126467,6492.333333333333,21.641752221689448,0.6079574864251717,2768.289168251043,0.4263935670151014,6540.0,-17.0,38.0,4983855.0,1.91579253232416,27.0,8.670352968986714,73.0,17.938076574175387,12.232262996941897,16.0,-164.0,237.0,11.419364622160682,27.605386058694076,-1.6378112737793444,4983855.0,0.32754117217967066,612.4290814231873,66.40524990278229,44.64142969145683,-4.8256840860456105,2.728676469416738,0.5059344017734829,0.6850852187897061,0.39346036476860824,1.1038509306279338,0.3445575480207635,0.8179374525319187,0.8137921343771063,0.9951298613049916,0.9650149635656506,-0.29256938310360997,0.7912275805185793,0.3285186400112537,8.114734783358436,0.19302980244960097,3.038105380503992,0.7128277581256063,0.3415543214610412,16.229469566716872,2.5633842005154643,0.8086527177975552
case_0158,0.8410955209147886,0.6889627356842052,13.273383984004028,19.265750230775982,22.135943621178654,19.1049731745428,21.213203435596427,23.366642891095847,2719.625,16.204336226168735,0.7679260945809119,1226.9797133127845,0.4511576828837742,2742.0,26.0,89.0,12531405.0,1.9740342448393742,27.0,4.875127778530905,116.0,19.286846264792054,62.448942377826405,68.0,-45.0,161.0,12.16008673678239,67.60302940138908,-1.2881276503089574,12531405.0,0.3134582614446057,670.299180135994,27.099067874186794,47.904685810057906,-6.744532912678496,2.9570096227883407,0.8377272956212424,0.5543350516684129,0.6103940812659375,1.3703619413295338,0.4588433108271993,0.7284791094546768,0.717331319449899,0.9839656263632649,0.926712306250837,-0.14200499509598624,0.6202272302087136,0.4498256953918131,5.154462004825434,0.1426748449435629,3.4389040868473892,0.6091684174191276,0.22610411639423947,10.308924009650868,2.608243040412291,0.9486842296023957
case_0159,0.9525167294783429,0.7464540880352604,16.75459997788914,22.44558673660543,26.248809496813376,26.40075756488817,27.85677655436824,29.34280150224242,4786.333333333333,21.379796869573873,0.6541439169647905,2099.6461560573885,0.438675288541832,4818.0,65.0,114.0,40613361.0,1.762318357269036,25.0,5.1381760682702,158.0,15.259630371164175,89.61000415110004,91.0,-68.0,226.0,10.407371350832683,91.81234245269022,-0.6247420395203443,40613361.0,0.3575293872552441,399.5533826898955,51.31985206086141,16.063948089264386,-1.0989486545967593,1.9118468494531369,0.5683392321096794,0.5384794376567765,0.47970575136469407,1.1827297237104402,0.33477915693216975,0.7741290716210933,0.7689968474758504,0.9944337017159112,0.9570506253189704,-0.157656506307099,0.6267825840543755,0.4095195556992751,7.140299112441275,0.175011406283424,3.0990163010782235,0.6517996415851451,0.33720347629313174,14.28059822488255,2.4554618536588704,0.6200465203907041
case_0160,0.466854364363346,0.3014903389158359,22.518812727597897,74.69165615248538,40.24922359499622,60.8276253029822,63.50590523722971,65.90902821313632,18615.791666666668,34.870125656314165,0.5002702061442221,6789.959108549957,0.3647418938786267,18693.0,-15.0,40.0,17886351.0,1.9828796920930614,25.0,11.369656005786943,118.0,18.46069987890418,15.192478467875675,20.0,-223.0,341.0,10.876773127595012,30.93295227602748,-1.9737145831762866,17886351.0,0.32521684015306956,726.0361345141274,104.98108490129734,98.19242001971432,-9.527493697906525,3.135337695832763,0.6663328485209649,0.6425565513274508,0.5074239337682176,1.2379408310818978,0.40174448205948965,0.7677906165561651,0.7613463804765431,0.9966682442268381,0.966798451323809,-0.20813623968512313,0.7094551763670833,0.4096455679189127,10.215839323318212,0.1651326838089779,3.259951669768016,0.6841138475611176,0.26247072391974313,20.43167864663642,2.6134874721459296,0.9504176360884318
case_0164,0.8796065470907415,0.16899182120366535,18.988040084442613,112.36070449562544,99.28242543370907,112.44998888394787,89.56003573022959,123.4382436686459,39947.125,98.83321131008024,0.4165443314926235,13566.877846864905,0.3396208825257113,40110.0,32.0,81.0,158562803.0,1.8107063508076617,23.0,23.821518689095466,123.0,16.440118978468647,57.82899526302668,62.0,-282.0,405.0,10.024337455997415,62.87446841413064,-3.0619837695208054,158562803.0,0.36938826728118224,609.0060852283495,223.4261839837103,98.93437924648441,-8.335263643893647,2.6114604911495034,0.6024969998669609,0.6188677636208018,0.4250340148299422,1.1405800149958585,0.4171628547201962,0.8058146514030798,0.8016548117648574,0.9979851699835603,0.9768440209386361,-0.23260671348087922,0.7236851607730259,0.35131599493352417,14.930619777834018,0.21241803635620585,2.988081219415915,0.6698705928526036,0.4064980806900119,29.861239555668035,2.4674515661650642,0.8034893727541162
case_0165,0.4973900179371705,0.350178207580486,12.172460203305292,34.76075877882131,33.61547262794322,28.635642126552707,27.892651361962706,37.92097045171708,4172.583333333333,17.289654432507593,0.6021531783789026,2081.5195175320446,0.4988563082499758,4206.0,7.0,57.0,8236089.0,1.8588894241428773,24.0,27.4552091608566,91.0,18.132122803530674,33.131003328578224,39.0,-284.0,375.0,10.535526182265372,44.251284465992136,-3.848793504299891,8236089.0,0.3528014798504684,860.5127953318956,196.10761543928098,196.12280019962375,-14.681793871720602,3.0066859135309114,1.028864669164866,0.4641594881481349,0.5122962298696618,1.2643517713085002,0.7599120459436748,0.7852115452299311,0.7791977850317947,0.9963365737878243,0.9712414059508827,-0.1885558654170777,0.6661813412028678,0.3705078765110145,13.986103913873604,0.1889257503715393,3.0707546453041257,0.6215447658164394,0.3584087323072883,27.97220782774721,2.4775414364352693,1.0088876456739444
case_0166,0.2510450339280482,0.15999964642948453,14.229633660867105,88.93540691127981,69.58448102845921,27.730849247724095,67.468511173732,77.18160402582988,6702.083333333333,22.326792245447013,0.5072070282867898,3389.2640934729116,0.5057030664802604,6778.0,16.0,78.0,22581780.0,2.229822347567995,30.0,16.522235235366555,179.0,21.762921036338472,47.300678666273235,51.0,-317.0,496.0,12.852008196521595,57.72026333148324,-2.210279335542639,22581780.0,0.28183261051214853,1094.2745967657324,241.3289073359804,177.24905772684517,-10.23498536246742,4.233232594306086,0.9604903634091921,0.6221312460757706,0.5260078137179556,1.3301257672298321,0.6788035496892835,0.7790044368326259,0.7703817021545425,0.9979073198384428,0.9768492879337854,-0.255865007094514,0.7972620045068702,0.36366448325760437,15.508394251004658,0.1461544791907075,3.596443220739741,0.7077978858139095,0.2692140589748294,31.01678850200932,2.893699968463653,1.2984307394288193
case_0170,0.5304178902618494,0.22245780472973176,13.682909830356332,61.50788841497362,59.54829972383762,37.12142238654117,52.61178575186362,60.55575942881073,8503.833333333334,32.62488440753155,0.5285067744539137,3812.209206857421,0.4482930294405371,8565.0,14.0,57.0,15200167.0,1.74389686917638,22.0,24.933137104693177,104.0,15.195023366181962,34.8031523642732,37.0,-232.0,336.0,9.279138217083547,42.12699644573324,-3.1611170542183844,15200167.0,0.3893069344721131,563.4244150480052,144.6246461220406,92.43835306846593,-7.105379408303926,2.3695418994792523,0.6090443783637289,0.5791712468060998,0.39508986866100504,1.1094012896522125,0.4489559651089567,0.8230628780468636,0.8191430290325686,0.997427341897358,0.9759829544180831,-0.244935383073832,0.7280396435847579,0.31756203264507626,12.007663726181352,0.23455080313026308,2.8486538404174016,0.6988978770666443,0.4325359036390652,24.015327452362705,2.382574393017658,0.7446465694607453
case_0171,0.49186925833572115,0.32625066286033144,37.01991682450333,113.47077887885129,90.44335243676011,93.81364506296512,88.09086218218096,114.48143954370944,70383.16666666667,55.8127878499172,0.4059285515136961,20308.61908255131,0.28854369651670464,70545.0,22.0,56.0,132745558.0,1.5089165064686545,18.0,27.518956921695946,285.0,12.256567369948948,38.93758593805372,40.0,-244.0,529.0,7.402599794188159,43.378734673484466,-2.23423088146892,132745558.0,0.4632668458825035,365.57902318924454,146.93851655973597,40.656996557487304,-2.255231757062818,1.632978631666095,0.3693836686487449,0.6225793918248167,0.2729590656935093,0.9007864100375061,0.2933607595606729,0.8729185006995099,0.8711357914645238,0.9992516329633881,0.9882886261740962,-0.3022553486762602,0.7463877851278363,0.2376238266922908,12.108780671666304,0.33425182419506283,2.3609586616917735,0.712270873179502,0.5437235424526858,24.217561343332612,2.0526231493792317,0.5005905750787101
case_0175,0.7837080613822929,0.23261396250105235,19.235118194379965,82.69115915298052,82.41965784932621,53.31041174104736,86.37708029332781,98.5190336940025,9561.458333333334,64.805728033237,0.36515220071487936,5966.133402694343,0.623977346833704,9695.0,-1.0,77.0,27880221.0,2.4904298968665457,39.0,17.551209247301813,485.0,25.82510468196975,38.63898916967509,39.0,-298.0,783.0,16.26461297006325,53.62585126291233,0.7988950807685656,27880221.0,0.22827501295973815,1382.7604396177267,201.54939907980756,462.2378160042036,7.618913020520198,6.30377751339776,1.0068907813591004,0.7189795222697272,0.5954355997854869,1.3848409665411685,0.6440417787774657,0.7447900854451259,0.7346008984629846,0.9990332105066988,0.9822940651617132,-0.27827946714399165,0.8451558849968729,0.4208149904483791,14.1500736005363,0.09900410946596777,4.069815195947239,0.8161788273025512,0.208209526434145,28.300147201072605,3.2416671777359745,1.8276670736892155
case_0177,0.1708307056662572,0.0958264995361875,14.442995993384116,150.72027114931737,91.92388155425118,30.4138126514911,30.265491900843113,92.76852914647294,3417.1666666666665,25.747650278647512,0.4862710351752446,2256.2289314809823,0.66026306339979,3465.0,4.0,58.0,6982848.0,2.0247326905239493,26.0,20.014985279228515,118.0,19.678016528925617,31.563636363636363,37.0,-274.0,392.0,10.984765267950925,44.89155764786903,-3.0770419453434297,6982848.0,0.33418389210597005,1018.9888075560804,166.5293352095233,222.97743419134045,-16.946499633095435,3.5586204796735483,1.3373768559047152,0.41535160088888934,0.5954795891051604,1.4277741848235037,0.973729730476993,0.7670063185719004,0.7563580706615155,0.9952076692555804,0.9670063821986612,-0.16523793985627752,0.642736921554691,0.3642766422891434,12.883051722663412,0.18164625324854264,3.3457829806406107,0.5649229466099195,0.3696231998565994,25.766103445326813,2.598161853724487,1.2239993338945667
case_0178,0.7380070034303892,0.5509775616936906,22.216441462595373,40.32186246260667,47.43416490252569,34.539832078341085,46.09772228646444,47.47630988187688,17200.5,29.75781688876064,0.674377736616467,4778.316887249678,0.2778010457399307,17252.0,42.0,76.0,69867514.0,1.5029504563645777,18.0,75.01031219093225,127.0,13.588237675269752,57.10271272895896,60.0,-423.0,550.0,7.212412021940869,63.63820489445575,-6.897686652682086,69867514.0,0.48655378229046614,789.1013211827199,395.1426739605128,453.172882252162,-23.363383149940244,2.4987141791046605,0.9038641540049919,0.4363898941608629,0.44315472903215486,1.1566355709866074,0.7049058809280956,0.8087868105930464,0.8049838563934344,0.9984198559592452,0.9821542907057447,-0.13024781490049855,0.5332786471758479,0.3442308367558192,19.868153195092535,0.30227574218844455,2.586300322039283,0.5607977988286347,0.5181183363973881,39.73630639018507,2.079123616458432,0.8506445832774134
case_0180,0.7461931041033631,0.44791626390876577,54.7682924979131,122.27350715058793,85.0411665018772,127.31457104353767,113.1591799192624,128.3666623387864,66291.20833333333,91.23964785030198,0.33809026638620826,23429.089624983244,0.35342679993362486,66549.0,4.0,73.0,163886769.0,2.280444120906959,37.0,13.287058771667555,214.0,22.753277032948862,38.42709882943395,40.0,-346.0,560.0,15.422558751563724,49.62507540459994,-1.4687787286406468,163886769.0,0.25271709806053183,986.0061844651461,260.2913797955706,194.98713509753145,-9.005547612613556,4.858247988116141,0.6374862555873946,0.7650044081834827,0.4519095039249104,1.176251829604354,0.4276705437171554,0.7944380500900607,0.7896245157797899,0.9988144100535797,0.9814551031304484,-0.33931452908080334,0.8728250772664924,0.3684752072071839,16.10080994199166,0.12321630718102615,3.642306583316628,0.7963037481203188,0.22430131573760115,32.20161988398332,3.0543571924651554,1.373933560925884
case_0182,0.6953117661039927,0.3915208774795903,9.917966504392927,25.331896904807955,26.1725046566048,27.459060435491963,20.615528128088304,28.722813232690143,2564.125,17.613565975646285,0.645833227978638,1402.7809761829856,0.547079793763169,2591.0,-23.0,38.0,3115093.0,2.1194268629125306,29.0,15.549205324167888,68.0,22.034884879688487,9.994982632188345,18.0,-241.0,309.0,12.973171945933323,34.6738289120795,-2.776875826370767,3115093.0,0.293345236107352,1102.3747336064139,123.90401182599115,250.59856476246918,-20.79357412795415,4.447984789066073,0.886517463061018,0.6584032877813356,0.5044495497759152,1.2868076252255753,0.6234896569298841,0.7869592455959942,0.7792977307121736,0.9950965981976296,0.9655447371578709,-0.2776708843042602,0.7979206306791146,0.35526453336318087,11.091084689587346,0.16301722109247482,3.3352291533721803,0.7235968854787632,0.2635164319722234,22.18216937917469,2.7410860068113982,1.3336255630317726
case_0183,0.784494136081036,0.6237080363563785,18.466612476215904,29.60778344960161,34.785054261852174,28.160255680657446,31.04834939252005,34.91418050019218,8806.208333333334,23.22713249856961,0.7499457671642331,2749.878908397151,0.3122659383367398,8838.0,-12.0,52.0,10498949.0,2.0798639679434814,31.0,3.9301696776228434,109.0,19.784101660212457,22.900090518216793,27.0,-90.0,199.0,13.202347742397603,34.46639924732872,-0.7336121027652137,10498949.0,0.29135282178865046,663.518531333739,31.37756419382171,33.510608903601586,-3.5794719951234173,2.8334368344234715,1.0207809272411479,0.46706072245983626,0.7070685837529751,1.4651655013390985,0.5114371091162329,0.6932672011011056,0.6775338551721528,0.9879334041277604,0.9320405208701932,-0.10153234221516552,0.5456346672898974,0.4822320455003241,5.5609084651476115,0.11650541144955895,3.74252480411656,0.5029355833766818,0.24360741950275047,11.121816930295223,2.7217386805610575,0.9635544404161548
case_0187,0.8446671931746059,0.7249888008980256,17.205452008301087,23.732024531950174,26.90724809414742,26.248809496813376,23.853720883753127,31.78049716414141,5489.125,20.045662549753246,0.7746988215838263,1942.4654802763584,0.35387524974861356,5516.0,34.0,103.0,31261518.0,2.378975484166127,34.0,9.941080077594588,248.0,23.712087349820496,66.9140681653372,68.0,-226.0,474.0,14.570806680300741,75.28230408399004,-1.0978248832274882,31261518.0,0.2509582513208329,1189.93278975895,176.34728001348805,163.78242490512432,-5.7791365817362585,4.993050550402409,0.8623238967009098,0.6973391710521036,0.5050379828204888,1.2990136156058891,0.6021893778214039,0.7850826700074027,0.7772446499179139,0.9979078153304275,0.9766510638426239,-0.31520664796391556,0.8592026755795169,0.35846264613407064,13.240617957365503,0.13058742407441684,3.7145571055578532,0.7826563941866806,0.26417489773272357,26.481235914731005,3.063581682006521,1.4638436117758298
case_0188,0.78515453380095,0.40866120225469693,45.54289655964863,111.44414079040503,169.04733065032408,197.60819821049935,82.28000972289685,197.86358937409378,46564.666666666664,87.50087240713789,0.401878925644647,15574.946284203039,0.33447992650084557,46754.0,-40.0,42.0,57884586.0,2.4494733874632733,44.0,6.1496044075422995,240.0,26.615985378415257,6.222783077383753,11.0,-368.0,608.0,18.28646435968366,35.186176713275096,-0.737277820555659,57884586.0,0.2248018176205809,1199.3440024696486,254.53569281813083,176.70002804860871,-8.868956649377495,6.285628558851513,0.4851447204461676,0.8554417494321584,0.3714524657727528,1.0808851173067757,0.3442970951107165,0.8281769784568689,0.8243430181179472,0.9992309325614527,0.9858662978165333,-0.444969275442559,0.9329288079352931,0.3106394855847888,15.908626509322456,0.13721379841877732,3.636133086204924,0.8736742512595865,0.24280318022901778,31.817253018644905,3.149497104769132,1.6926933198244205
case_0189,0.8871346557667947,0.7193923195104865,14.771138586795757,20.53279995656173,28.0178514522438,26.92582403567252,20.808652046684813,28.879058156387302,2939.25,18.215358421392846,0.6346130005480314,1563.6258598371462,0.531981240056867,2969.0,-8.0,58.0,4124137.0,2.1320917267714115,37.0,3.195909288878185,118.0,21.3391848245273,26.408555069046816,28.0,-95.0,213.0,15.425271673592018,37.270175952005275,-0.46610287812049706,4124137.0,0.2606914539950886,691.6542346585537,33.40709222507487,36.03817548749214,-2.71659455293258,3.486760167344928,0.5748453581353704,0.7147199950745774,0.4936654630175539,1.160299096972268,0.3218594475770684,0.7659079833507113,0.7612125947155504,0.9930769932909432,0.9513558663010075,-0.27275885784097365,0.8030091932361577,0.42957900274006683,5.716474399274929,0.11927918537334589,3.49527010212591,0.7348584252024662,0.21661251647559976,11.432948798549859,2.87030857372942,1.0154013813700744
case_0191,0.6461862495444528,0.5060717683199649,12.111729539808875,23.932829883035897,21.540659228538015,28.600699292150182,22.80350850198276,29.614185789921695,2726.6666666666665,15.465065583104371,0.6852094581204776,1377.4699757077606,0.5051845876678829,2751.0,1.0,70.0,6038271.0,2.2700041584136725,31.0,4.462429226411924,165.0,21.513639334878526,36.395856052344605,36.0,-66.0,231.0,13.29406743473852,46.85015208377266,0.14060502845796335,6038271.0,0.27034576237503133,870.2784124896391,26.62891670505987,86.07339248967673,3.6190214172263357,4.316025977846152,0.7744837211282795,0.6932373886864523,0.5649944688068994,1.3392294226185284,0.4481380536581856,0.748336265284284,0.738182555436019,0.9925100268819408,0.9501631646810007,-0.2421724432582877,0.7930893540133319,0.41835246537934834,5.073770798706516,0.13000235728179227,3.7821564733123005,0.7404835094082673,0.2942998313664286,10.14754159741303,2.990871661526456,1.2726274247436076
case_0193,0.503177919841752,0.42445948351236945,12.214839037753825,28.777396930036698,27.65863337187866,31.906112267087632,18.027756377319946,31.96873472629156,3290.9583333333335,14.480150725716285,0.7171274749638522,1492.0018165919596,0.45336393398841557,3317.0,-18.0,48.0,3283977.0,2.0916149755757654,37.0,3.584531163916959,79.0,21.077726139967055,17.41905336147121,21.0,-124.0,203.0,15.274585028726952,31.46496968303092,-0.7587440737819556,3283977.0,0.2782920301033703,686.6208971442735,41.047026358269584,39.228378649548226,-4.20898614918124,3.4951669009383295,0.5635635076085779,0.7207216927632281,0.46482396290412853,1.1769444875681456,0.34134482377896597,0.7827197356985296,0.7773982936600559,0.9932389268668371,0.954390137952873,-0.27926836117213283,0.810542092491604,0.3904916269694335,6.349278414132562,0.13915622852396015,3.4477255605372275,0.7452057887245773,0.2762905974785336,12.698556828265128,2.8252455756860337,1.014682602136727
case_0194,0.5664573133956896,0.4319690025550429,16.06375963738385,37.187297103191916,36.40054944640259,37.73592452822641,24.351591323771842,40.36087214122113,8077.75,21.065016409521405,0.6889633704208744,2825.844524993339,0.34983064900415817,8112.0,12.0,91.0,32145685.0,2.361364061400564,36.0,3.970131845992977,186.0,23.92154769737482,54.65520216962525,58.0,-162.0,348.0,15.933730121057314,62.95023726559632,-0.49158882104704044,32145685.0,0.2409760639022132,975.5412475922635,97.34386782381794,77.59862222795181,-3.991195769172563,4.593417905724187,1.0292165174105343,0.6313304329981485,0.7017938462618643,1.4696299365067893,0.5284719714891393,0.6962644447434296,0.6809808724372238,0.9955118334982781,0.9572996345619644,-0.17610006945628356,0.7260067612007688,0.479260918100283,9.821002314459276,0.09215020440220488,4.113405235825075,0.6448358304528246,0.2170855629764074,19.64200462891855,3.1005311903047845,1.4056586057836808
case_0197,0.8922497211838454,0.7422388724233459,29.533753141122677,39.79009216358815,48.877397639399746,44.41846462902562,44.384682042344295,49.0,28511.666666666668,35.50269863884104,0.7173661370707854,6291.559705646666,0.22066614972747994,28578.0,27.0,67.0,78196182.0,1.6480310587958615,18.0,9.758051395818143,124.0,13.92794097976123,47.994191335992724,51.0,-154.0,278.0,7.791892638245756,52.30905309295743,-2.0118198078803617,78196182.0,0.40215919909419506,432.7946334859604,90.76060295652123,33.53307039897443,-4.867716403362458,1.9148933877967123,0.6167190656464515,0.5084391584073589,0.5035108886248918,1.2125506194720388,0.3589003380332129,0.7648955354497423,0.7592609438810721,0.9957991976245489,0.9618673572759301,-0.12723448414796418,0.5521798252001173,0.4232828742288317,9.50977594153557,0.20818261408745056,2.8836008340346146,0.6267710462464061,0.35460198044039587,19.019551883071138,2.2359377053533938,0.6329031133607909
case_0199,0.7537148348916594,0.5838103655783209,41.87608763745966,71.72892107864054,100.16985574512923,61.71709649683789,96.74709297958259,104.24490395218368,90933.70833333333,54.06315190774441,0.5564440114905334,17574.34926516866,0.1932655072280438,91063.0,40.0,72.0,316179702.0,1.3424230296937683,15.0,60.0796140075944,279.0,11.13845484123453,55.74637338985098,58.0,-319.0,598.0,6.621149590927593,58.924514926373305,-5.035897377353209,316179702.0,0.5242692246402273,364.44031318770516,249.85040569902424,103.385922468456,-7.209260450073728,1.5854560457823628,0.34473404689290643,0.6341793757245947,0.2635595466056567,0.8738082919975267,0.273405086417755,0.8758968751894808,0.8745145246339134,0.9994562674511008,0.9899673368489245,-0.2687137364682793,0.6883824043772397,0.2352297604444088,15.79683943488567,0.38897629006307083,2.1625607987239777,0.705711741646344,0.5992146952886933,31.593678869771338,1.8707236464044865,0.4825475231688174
case_0201,0.6224060410935282,0.38407260181676445,47.8198377162303,124.50728713797832,162.92636373527768,159.47727110782904,116.29703349613007,201.32809043946153,115509.33333333333,77.49408767484425,0.2935808402483204,39069.19535930591,0.338234099633847,115991.0,0.0,65.0,220910407.0,2.1742974681657157,33.0,7.328141466914616,211.0,20.890640242619252,33.71376227465924,36.0,-296.0,507.0,14.169098643449543,43.64112540925791,-0.9643358061139069,220910407.0,0.2696897276535725,767.9300602743402,195.08003662015653,91.32645427435745,-5.528264474654042,4.170964788047284,0.45153418336217316,0.8031197191246531,0.3671707203976933,1.046315761380904,0.312602902561039,0.8266630519072488,0.8238819564531126,0.998986848192044,0.9834664700102572,-0.3856418381400275,0.8902867052020753,0.3226565759147044,13.93376871071672,0.14875994202300225,3.3915228829993485,0.8165292947542847,0.27895076352903275,27.867537421433443,2.9249641158466635,1.155624742852364
case_0202,0.7156941106391508,0.3603335935710091,5.443510015403665,15.106862397860056,12.083045973594572,14.212670403551895,14.7648230602334,16.401219466856727,467.0833333333333,10.811892448384482,0.6640712926467032,438.39507377319734,0.9385799973734823,480.0,44.80000000000001,126.0,3909168.0,2.417413344438088,39.0,3.3921117401101233,192.0,24.699531250000003,84.4125,83.5,-23.0,215.0,16.792025636700963,90.24466743248601,0.047631057938250045,3909168.0,0.22421875000000002,1018.62984375,25.968790135440965,81.28971292853406,0.6800559091815267,5.216944145740869,0.610379221341754,0.7913712061502464,0.5141174039218819,1.1578286628748233,0.3231141091314678,0.7580866271877779,0.7524611620221978,0.9926595929849638,0.9494453489595404,-0.35614246703394603,0.8866225256751731,0.4376244706911592,4.981583880148914,0.10403100805498654,3.7911311144167312,0.8124825115160548,0.22846718062647528,9.963167760297827,3.176708022212205,1.456830841770656
case_0203,0.40981363528953213,0.2135846491875935,15.983743899337393,74.83563992138177,33.1058907144937,59.53990258641679,51.088159097779204,62.89674077406555,11723.375,30.668665645399898,0.4938554685807415,5053.427376093675,0.4310556794518366,11787.0,44.0,179.0,196103646.0,3.186134274004015,72.0,6.417302034042555,501.0,44.98204709913858,114.27793331636549,123.0,-227.0,728.0,29.842068342390988,128.98558935058242,-1.1693741130899467,196103646.0,0.13496942552368396,3577.8362170574014,239.40948192677718,1210.3466870239022,-50.11424598884753,15.950267524547169,2.3122718077642084,0.7419010175018611,0.9248861445438585,1.804316586724472,1.4372330289949082,0.6657124722906254,0.641732244879521,0.997660234679181,0.9722890268004325,-0.26999271532512087,0.8896278302485612,0.4462616980947706,15.362140552347224,0.0428312690838515,5.271299411425646,0.8042226388472986,0.09860321244690488,30.724281104694448,3.964798488356471,4.565634833077845
case_0204,0.22200498146961387,0.16938452675536053,16.852187782927736,99.49071562638711,75.66372975210778,72.44308110509934,26.92582403567252,78.54934754662193,10385.916666666666,22.087434479034695,0.552137667744882,4169.333518466706,0.401441071816807,10449.0,3.0,65.0,24762821.0,1.9135873685564833,27.0,9.105003704370297,178.0,19.988308304803116,40.22174370753182,48.0,-229.0,407.0,12.443324109374451,48.68135911058825,-1.8859544803281243,24762821.0,0.33312005564014396,752.0860579796774,151.36893583036814,56.84516295177197,-7.9604832078597205,3.078211401571632,0.6199279630538921,0.6585498803664482,0.39614484762457064,1.156693762141556,0.4603595645534363,0.8270287440418099,0.8208424326183524,0.9981437850930429,0.9796846455103344,-0.2830506802137913,0.7793690928358508,0.29162366037291315,12.278153161376268,0.2264926027329124,2.9422424941570573,0.7226052837083476,0.40268799992379967,24.55630632275254,2.421720648509139,0.9245348411563813
case_0206,0.8293924430157784,0.3730105559881089,21.099185396917427,56.56457989781405,73.92563831310488,93.5200513259055,61.35144660071187,115.04347004502254,17067.083333333332,46.91423510960918,0.5313424412885148,6033.219929945272,0.3535003498905948,17201.0,2.0,45.0,20473053.0,1.7051790946301197,20.0,26.69779799862025,111.0,15.421594394710748,23.725074123597466,28.0,-290.0,401.0,8.820400704410805,34.499631591747196,-3.5436545089691696,20473053.0,0.40052625911357564,627.3454377960871,184.3241165163612,142.21042418196677,-11.611837138243471,2.5439741608174673,0.5221080080067528,0.6480427361321446,0.354199987408112,1.0589831633573046,0.39399105057140227,0.840912626638067,0.8371573331073437,0.9982448943219834,0.9807647676574252,-0.2683953719894357,0.7383273445760102,0.283933405266306,13.557948087630763,0.26843635990682524,2.668872289780102,0.7024494271810687,0.453431826673896,27.115896175261522,2.255574565873041,0.7665205422060549
case_0210,0.7156126071781831,0.28080287842050244,33.151449693457316,118.05950807887733,109.77249200050075,90.62008607367353,101.43470806385751,125.01999840025594,21765.416666666668,84.48487237849918,0.3335110225315732,11303.647079180419,0.519339797270766,21960.0,-9.0,63.0,48209603.0,2.3470900050910535,39.0,17.048537671421983,209.0,25.516280175745933,28.424817850637524,35.0,-347.0,556.0,16.310552089060007,46.854424688951255,-2.610994888817988,48209603.0,0.2455313685090627,1387.3668430906832,250.12419733896303,554.6995887452135,-33.666093412084024,6.449799070909705,0.9060804819228286,0.7474077096133539,0.5314486749059719,1.323686321125094,0.6159759014430647,0.773694276893393,0.7653864076181078,0.9983254304568773,0.9784282041626718,-0.30618051274403535,0.8553851664541547,0.37716342034464306,15.771408210691664,0.1166517580432088,3.8072154151230757,0.7826026634423854,0.21489479076040904,31.542816421383332,3.103702655130136,1.8389698882081336
case_0216,0.2654162709341587,0.2619705647250463,16.844456371145984,64.29904210354795,44.94441010848846,24.413111231467404,34.713109915419565,55.87486017879597,6677.791666666667,17.06601197976216,0.5795955846518909,2958.7910750206356,0.44307927271674924,6715.0,-34.0,93.0,25116870.0,3.07977603573947,71.0,3.2502887640250404,221.0,41.32443809189038,33.03320923306031,37.0,-182.0,403.0,29.461206627952564,61.1589119369166,-0.060285040071597316,25116870.0,0.13797560390075894,2649.219597072379,104.27902480027261,559.862156616662,-4.926800488039882,13.399742516524343,1.6936697371398979,0.7733841604372617,0.9269539911592337,1.7194905505134808,0.8118244131913499,0.6355196882383763,0.6079336066409972,0.9942948778525813,0.9506163794504199,-0.24653750055976062,0.865794617035188,0.4915177641282011,10.067227378448772,0.03878786659931899,5.232872121446316,0.7933254780642223,0.09124436708860334,20.134454756897544,3.896191103107465,3.7733530634160606
case_0219,0.7175357000463148,0.46368983190847546,17.88763370501226,38.57672192506256,37.107950630558946,48.83646178829912,35.510561809129406,49.48737212663449,11220.333333333334,27.680175171991785,0.6260388286666233,3871.566235927235,0.3450491283022401,11274.0,42.0,98.0,64029406.0,2.0213689077796158,26.0,6.524331218351349,225.0,17.929501470129644,71.15593400745077,72.0,-65.0,290.0,11.426690517090778,75.36170599535565,-0.08531057294996568,64029406.0,0.30990530866459914,616.2197860577347,41.71243026145429,41.002892491592135,-0.9600487802565966,2.82991125193118,0.7378349466826754,0.5831110704583679,0.5578118131568714,1.2913881512256797,0.4176597809781236,0.7467520908510916,0.7384999313930104,0.9957244930839035,0.9609775760774704,-0.17780042748940986,0.678499809258722,0.43717841305633703,6.417884515302953,0.13850909741837938,3.487374347443317,0.621120041571577,0.23215622977590916,12.835769030605904,2.7221182304548077,0.8919365496534637
case_0222,0.5915025784626183,0.5018846204545838,16.39551626135139,32.667899340093534,36.235341863986875,31.906112267087632,24.515301344262525,40.23679907746142,6898.916666666667,19.323146692622593,0.7059723636459553,2482.468178774805,0.359834492677566,6936.0,26.0,133.0,79476490.0,2.470278312177182,37.0,8.716906391187822,218.0,34.52324531821005,95.22029988465975,112.0,-252.0,470.0,18.792673345069087,107.04460824607627,-2.151014727399028,79476490.0,0.26376155065459256,2391.642644431407,245.54605804779027,695.0740063457431,-55.84661257711507,8.686805539191058,1.8838281359426843,0.6307898628507608,0.7934866231766067,1.7090119477639243,1.240994888762499,0.7108153465214333,0.6907032194680139,0.9955073601912118,0.9643194909356639,-0.1748034873971355,0.7107067672133939,0.3908639542802638,15.615386359864356,0.13546915251399272,4.0279857636808165,0.6657509014496608,0.2998513501790414,31.23077271972871,3.0215842242249242,2.642658418783436
case_0223,0.8911029115996004,0.529502993114676,15.955026119654573,30.132079189586655,31.953090617340916,37.8021163428716,32.64965543462902,38.01315561749642,8727.041666666666,26.850783498390395,0.70726564821093,2898.319502520939,0.3321079024512055,8763.0,2.0,84.0,26222645.0,2.4774154772147177,42.0,6.735646715041577,173.0,26.10202563820377,42.43147323975808,43.0,-228.0,401.0,17.786940663944424,54.70308786094538,-0.8583444771815167,26222645.0,0.21699990007835507,1191.9979002260045,153.07703617494792,138.42952560344912,-5.20693178900739,5.614722244071942,0.9838539371928401,0.7000449341602315,0.6620902902520636,1.4171155258225443,0.5359923569551888,0.7105161995789087,0.6981923703131877,0.9966720709806351,0.9640990387304476,-0.2352827533867029,0.8084566629795032,0.4741954854172657,12.325535555260473,0.0805429688871254,4.1769455216682605,0.729990218603839,0.17098968119858082,24.651071110520945,3.248596261094689,1.6496440453161958
case_0225,0.9102992456404827,0.41941094253204503,27.530773568365248,65.64152428202743,57.0701322935211,55.072679252057455,64.1404708432983,65.99242380758567,14969.708333333334,59.753430036621,0.44797033594799923,6557.079166687307,0.4380231745789285,15062.0,30.0,98.0,81257840.0,2.2127829091077977,34.0,10.264857512466897,232.0,21.746064921654067,67.30646660470057,71.0,-282.0,514.0,14.473597571283797,73.44991799039066,-1.2893191502617125,81257840.0,0.2683315989303258,864.7300059854405,234.40254591240262,106.17415349668666,-7.309256538199183,4.238552010125025,0.7490889452729975,0.6980152290479806,0.5476429085877679,1.2925721748080896,0.4431390216974267,0.7523636334517392,0.7444354713960065,0.9984713175656477,0.9765353894939991,-0.24649582557164493,0.7966510725565384,0.428127762875623,15.281681820166378,0.1199226300067781,3.731305927514915,0.7354155328451871,0.2351078031667901,30.563363640332756,2.9830554263879856,1.2469102388495057
case_0227,0.3366087213323716,0.2770468289483043,15.389901096639791,55.54981861752865,55.94640292279746,24.413111231467404,52.172789842982326,56.515484603779164,7782.0,18.69855341509149,0.5685097457193993,3340.4657873475953,0.4292554339948079,7827.0,38.0,79.0,31139058.0,1.5875065060776852,20.0,5.438903019922552,118.0,13.34429717353497,60.43056087900856,63.0,-56.0,174.0,8.41746339208315,63.07468180546058,-1.0800914408219915,31139058.0,0.4296403236013022,326.5627967085398,36.114075045372154,12.388504973732852,-1.528347063643219,1.5270249973863268,0.40512943412112545,0.5767760386060934,0.3646828389905942,1.0263006770895124,0.2689839875632617,0.8240174701389206,0.8216998763350719,0.9938330662949478,0.9599197580960905,-0.20185001157145196,0.6512834647596732,0.33287816452544505,5.986103372618374,0.27793602758290936,2.617958809365299,0.6063317964315755,0.49168825042449854,11.972206745236749,2.176251650760029,0.4830386078768629
case_0228,0.45408096257727143,0.314615337248652,74.36303520521976,236.36176117646778,244.60784942433878,223.16361710637332,147.05441169852742,276.63152387246106,64625.958333333336,107.32737603146964,0.21348625531659493,36479.77932474875,0.5644756420723419,65502.0,-35.0,44.0,80136545.0,2.373667476386944,43.0,7.7663908585033905,148.0,25.938542451867246,9.050395407773808,16.0,-312.0,460.0,17.801660817109806,34.97744052833343,-1.3651584874280602,80136545.0,0.23536870029929416,1141.5116888760488,198.77368494564416,193.95218101132846,-14.962619843097745,5.619383890269486,0.6420695179784052,0.7915769120841195,0.44336030304834495,1.2002048677469805,0.4407005653108593,0.8018018688537188,0.7956836913213572,0.9982570056373524,0.978269792473697,-0.3566891725401063,0.8866556875668347,0.34316587501886564,14.054454828054528,0.13178789435420105,3.6731087487235117,0.8272899365294241,0.2651460488190454,28.108909656109056,3.0712461401620845,1.5653633520619725
case_0229,0.1435032277338677,0.10492865174181543,20.02710938814195,190.86406863799328,112.08925015361643,116.05602095539895,31.400636936215164,139.52777501271925,15477.416666666666,27.389609907970506,0.5526161812867264,5434.916088870719,0.35115137144144765,15552.0,63.0,184.0,293806569.0,2.907914721865885,66.0,3.3036971361406815,253.0,38.057381460669845,129.2500643004115,136.5,-153.0,406.0,27.78814602674375,137.44774750701842,-0.5296535843137933,293806569.0,0.1540701366661586,2186.3041730925734,165.10672793078604,426.0506135943608,-19.98623211171284,12.385772889478572,1.0705142304124915,0.8404029485099458,0.6706307878829217,1.4831069509672044,0.6081931340233135,0.7165359797708893,0.7017052186065822,0.9967653807158157,0.9656973138426979,-0.3316326958884985,0.9158036060806316,0.4399211814242471,12.738826845818837,0.05538535181459318,4.764075020194611,0.8494991866451034,0.13843859478116538,25.477653691637673,3.7703334121216887,3.3640717799727655
